; generated by PrusaSlicer 2.9.2 on 2025-10-09 at 18:32:02 UTC

; 

; external perimeters extrusion width = 0.45mm
; perimeters extrusion width = 0.45mm
; infill extrusion width = 0.45mm
; solid infill extrusion width = 0.45mm
; top infill extrusion width = 0.40mm
; support material extrusion width = 0.40mm
; first layer extrusion width = 0.70mm

; external perimeters extrusion width = 0.45mm
; perimeters extrusion width = 0.45mm
; infill extrusion width = 0.45mm
; solid infill extrusion width = 0.45mm
; top infill extrusion width = 0.40mm
; support material extrusion width = 0.40mm
; first layer extrusion width = 0.70mm

; external perimeters extrusion width = 0.45mm
; perimeters extrusion width = 0.45mm
; infill extrusion width = 0.45mm
; solid infill extrusion width = 0.45mm
; top infill extrusion width = 0.40mm
; support material extrusion width = 0.40mm
; first layer extrusion width = 0.70mm

; external perimeters extrusion width = 0.45mm
; perimeters extrusion width = 0.45mm
; infill extrusion width = 0.45mm
; solid infill extrusion width = 0.45mm
; top infill extrusion width = 0.40mm
; support material extrusion width = 0.40mm
; first layer extrusion width = 0.70mm

M104 S200 ; set temperature
;TYPE:Custom
G28 ; home all axes
G1 Z5 F5000 ; lift nozzle
M109 S200 ; set temperature and wait for it to be reached
G21 ; set units to millimeters
G90 ; use absolute coordinates
M82 ; use absolute distances for extrusion
G92 E0
; Filament gcode
M107
;LAYER_CHANGE
;Z:0.35
;HEIGHT:0.35
G1 E-2 F2400
G92 E0
G1 Z.35 F7800
G1 X78.415 Y72.092
G1 E2 F2400
;TYPE:Skirt/Brim
;WIDTH:0.7
G1 F1800
G1 X79.918 Y70.733 E2.18425
G1 X81.477 Y69.662 E2.35624
G1 X83.323 Y68.727 E2.5444
G1 X85.303 Y68.057 E2.73447
G1 X87.058 Y67.71 E2.89714
G1 X89.177 Y67.578 E3.09019
G1 X99.805 Y67.955 E4.0572
G1 X101.378 Y68.131 E4.20112
G1 X103.147 Y68.587 E4.36723
G1 X104.969 Y69.398 E4.54857
G1 X105.707 Y69.892 E4.62932
G1 X107.082 Y70.99 E4.78932
G1 X126.22 Y88.878 E7.17133
G1 X127.47 Y90.448 E7.35381
G1 X127.941 Y91.173 E7.43242
G1 X128.753 Y93.057 E7.61897
G1 X130.274 Y97.267 E8.026
G1 X130.845 Y99.433 E8.22968
G1 X131.031 Y100.948 E8.36847
G1 X131.031 Y104.277 E8.67117
G1 X130.847 Y105.788 E8.80958
G1 X130.47 Y107.32 E8.95304
G1 X130.174 Y108.221 E9.03928
G1 X122.705 Y126.287 E10.81687
G1 X120.328 Y131.182 E11.31167
G1 X119.553 Y132.317 E11.43664
G1 X118.644 Y133.438 E11.56787
G1 X117.146 Y134.721 E11.74721
G1 X116.459 Y135.209 E11.82383
G1 X115.677 Y135.623 E11.90429
G1 X113.857 Y136.382 E12.0836
G1 X111.259 Y136.864 E12.32387
G1 X109.349 Y136.804 E12.49763
G1 X107.795 Y136.525 E12.64119
G1 X106.309 Y136.052 E12.78299
G1 X94.921 Y131.703 E13.89144
G1 X93.524 Y131.047 E14.03178
G1 X92.171 Y130.226 E14.17569
G1 X91.217 Y129.517 E14.28377
G1 X90.25 Y128.663 E14.40108
G1 X71.262 Y110.08 E16.81692
G1 X70.352 Y109.015 E16.9443
G1 X69.472 Y107.744 E17.08487
G1 X68.631 Y106.182 E17.24618
G1 X68.105 Y104.891 E17.37294
G1 X67.525 Y102.73 E17.57639
G1 X67.284 Y100.673 E17.76471
G1 X67.348 Y98.44 E17.96784
G1 X67.788 Y96.105 E18.1839
G1 X68.224 Y94.767 E18.31186
G1 X75.255 Y77.08 E20.04255
G1 X76.132 Y75.183 E20.23258
G1 X77.259 Y73.449 E20.42063
G1 X78.376 Y72.138 E20.57724
G1 E18.57724 F2400
G92 E0
G1 X102.183 Y94.685 F7800
G1 E2 F2400
G1 F1800
G1 X102.692 Y94.149 E2.06721
G1 X103.707 Y93.375 E2.18328
G1 X104.853 Y92.765 E2.30133
G1 X105.955 Y92.39 E2.40718
G1 X106.95 Y92.194 E2.49939
G1 X108.363 Y92.142 E2.62796
G1 X109.341 Y92.253 E2.71746
G1 X110.554 Y92.573 E2.83153
G1 X111.772 Y93.12 E2.95294
G1 X112.361 Y93.482 E3.0158
G1 X112.903 Y93.884 E3.07716
G1 X113.813 Y94.751 E3.19145
G1 X114.794 Y96.129 E3.34526
G1 X118.008 Y96.129 E3.63751
G1 X119.194 Y96.224 E3.7457
G1 X120.691 Y96.583 E3.88568
G1 X121.34 Y96.962 E3.95402
G1 X121.682 Y97.274 E3.99611
G1 X122.321 Y98.122 E4.09266
G1 X122.671 Y99.152 E4.19158
G1 X122.68 Y101.564 E4.4109
G1 X122.447 Y102.388 E4.48876
G1 X122.676 Y103.186 E4.56425
G1 X122.686 Y104.672 E4.69937
G1 X122.593 Y105.207 E4.74875
G1 X122.379 Y105.763 E4.80292
G1 X121.523 Y106.868 E4.93002
G1 X120.882 Y107.315 E5.00108
G1 X120.493 Y107.48 E5.0395
G1 X118.546 Y107.831 E5.21939
G1 X107.342 Y107.829 E6.23817
G1 X106.027 Y107.613 E6.35934
G1 X104.771 Y107.18 E6.48014
G1 X103.56 Y106.511 E6.60594
G1 X102.596 Y105.746 E6.71784
G1 X102.129 Y105.273 E6.77828
G1 X101.346 Y104.254 E6.89513
G1 X100.741 Y103.123 E7.01176
G1 X100.334 Y101.931 E7.12629
G1 X100.188 Y101.219 E7.19238
G1 X100.106 Y100.485 E7.25954
G1 X100.129 Y99.206 E7.37586
G1 X100.36 Y97.949 E7.49207
G1 X100.791 Y96.746 E7.60827
G1 X101.37 Y95.692 E7.71762
G1 X101.829 Y95.06 E7.78864
G1 X102.142 Y94.729 E7.83006
G1 X102.595 Y95.157 F7800
G1 F1800
G1 X103.101 Y94.621 E7.89709
G1 X104.034 Y93.907 E8.00392
G1 X105.107 Y93.336 E8.11444
G1 X106.098 Y92.999 E8.20962
G1 X107.024 Y92.815 E8.29547
G1 X108.311 Y92.765 E8.41258
G1 X109.254 Y92.872 E8.49888
G1 X110.336 Y93.159 E8.60067
G1 X111.458 Y93.661 E8.71244
G1 X112 Y93.993 E8.77023
G1 X112.52 Y94.378 E8.82906
G1 X113.354 Y95.176 E8.93402
G1 X114.049 Y96.093 E9.03864
G1 X114.434 Y96.754 E9.1082
G1 X117.988 Y96.754 E9.43136
G1 X119.091 Y96.84 E9.53196
G1 X120.446 Y97.158 E9.65852
G1 X121.203 Y97.676 E9.74193
G1 X121.775 Y98.428 E9.82784
G1 X122.052 Y99.242 E9.90602
G1 X122.055 Y101.531 E10.11416
G1 X121.774 Y102.382 E10.19565
G1 X122.051 Y103.223 E10.27616
G1 X122.061 Y104.648 E10.40574
G1 X121.828 Y105.467 E10.48317
G1 X121.102 Y106.406 E10.5911
G1 X120.282 Y106.891 E10.67773
G1 X118.509 Y107.207 E10.84149
G1 X107.381 Y107.205 E11.85335
G1 X106.192 Y107.01 E11.96291
G1 X105.036 Y106.613 E12.07405
G1 X103.918 Y105.999 E12.19003
G1 X102.6 Y104.862 E12.34831
G1 X101.865 Y103.905 E12.45803
G1 X101.31 Y102.864 E12.5653
G1 X100.937 Y101.767 E12.67066
G1 X100.803 Y101.109 E12.73172
G1 X100.73 Y100.457 E12.79138
G1 X100.75 Y99.28 E12.89842
G1 X100.96 Y98.122 E13.00543
G1 X101.356 Y97.013 E13.11251
G1 X101.898 Y96.025 E13.21498
G1 X102.31 Y95.459 E13.27864
G1 X102.554 Y95.2 E13.311
G1 X103.008 Y95.629 F7800
G1 F1800
G1 X103.528 Y95.077 E13.37996
G1 X104.363 Y94.439 E13.47551
G1 X105.36 Y93.907 E13.57827
G1 X106.24 Y93.607 E13.66281
G1 X107.1 Y93.436 E13.74254
G1 X108.26 Y93.388 E13.84811
G1 X109.134 Y93.485 E13.92807
G1 X110.644 Y93.953 E14.07182
G1 X111.166 Y94.213 E14.12485
G1 X112.117 Y94.856 E14.22924
G1 X113.221 Y95.997 E14.37361
G1 X114.014 Y97.379 E14.51849
G1 X118.495 Y97.4 E14.92595
G1 X120.207 Y97.736 E15.08459
G1 X120.727 Y98.081 E15.14133
G1 X121.233 Y98.739 E15.21681
G1 X121.432 Y99.326 E15.27317
G1 X121.43 Y101.493 E15.47021
G1 X121.246 Y102.021 E15.52105
G1 X120.993 Y102.41 E15.56324
G1 X121.216 Y102.7 E15.5965
G1 X121.402 Y103.153 E15.64103
G1 X121.436 Y104.623 E15.77473
G1 X121.273 Y105.178 E15.82733
G1 X120.676 Y105.948 E15.91592
G1 X120.078 Y106.3 E15.97902
G1 X118.473 Y106.583 E16.12721
G1 X107.443 Y106.583 E17.13016
G1 X106.356 Y106.407 E17.23029
G1 X105.299 Y106.047 E17.33182
G1 X104.275 Y105.486 E17.43799
G1 X103.054 Y104.433 E17.5846
G1 X102.384 Y103.557 E17.68488
G1 X101.879 Y102.605 E17.78287
G1 X101.418 Y100.999 E17.9348
G1 X101.341 Y99.889 E18.03597
G1 X101.445 Y98.819 E18.13372
G1 X101.72 Y97.78 E18.23145
G1 X102.161 Y96.799 E18.32925
G1 X102.79 Y95.859 E18.43209
G1 X102.966 Y95.672 E18.45544
G1 X103.42 Y96.1 F7800
G1 F1800
G1 X103.938 Y95.549 E18.52421
G1 X104.691 Y94.971 E18.61053
G1 X105.613 Y94.479 E18.70556
G1 X106.384 Y94.216 E18.77963
G1 X107.178 Y94.056 E18.85328
G1 X108.211 Y94.012 E18.9473
G1 X109.016 Y94.099 E19.02092
G1 X109.943 Y94.346 E19.10815
G1 X111.321 Y95.042 E19.24853
G1 X112.082 Y95.657 E19.3375
G1 X112.73 Y96.383 E19.42599
G1 X113.249 Y97.203 E19.51423
G1 X113.608 Y98.004 E19.59405
G1 X118.435 Y98.022 E20.03297
G1 X119.979 Y98.318 E20.17592
G1 X120.279 Y98.518 E20.20871
G1 X120.696 Y99.059 E20.27082
G1 X120.803 Y99.349 E20.29893
G1 X120.811 Y101.405 E20.48588
G1 X120.647 Y101.803 E20.52502
G1 X120.118 Y102.331 E20.59298
G1 X120.687 Y103.035 E20.67529
G1 X120.802 Y103.333 E20.70433
G1 X120.811 Y104.596 E20.81918
G1 X120.687 Y104.947 E20.85303
G1 X120.241 Y105.499 E20.91756
G1 X119.922 Y105.695 E20.9516
G1 X118.972 Y105.896 E21.0399
G1 X117.976 Y105.978 E21.13077
G1 X107.504 Y105.961 E22.08299
G1 X106.518 Y105.803 E22.17379
G1 X105.563 Y105.48 E22.26546
G1 X104.632 Y104.973 E22.36185
G1 X103.85 Y104.352 E22.45265
G1 X102.903 Y103.209 E22.58762
G1 X102.449 Y102.348 E22.67613
G1 X102.144 Y101.443 E22.76297
G1 X101.979 Y100.397 E22.85926
G1 X101.992 Y99.423 E22.94783
G1 X102.162 Y98.465 E23.0363
G1 X102.486 Y97.547 E23.12482
G1 X103.271 Y96.258 E23.26205
G1 X103.379 Y96.143 E23.2764
G1 X103.834 Y96.57 F7800
G1 F1800
G1 X104.349 Y96.02 E23.34491
G1 X105.456 Y95.245 E23.46779
G1 X106.565 Y94.814 E23.57598
G1 X107.256 Y94.676 E23.64005
G1 X108.164 Y94.635 E23.7227
G1 X108.897 Y94.713 E23.78973
G1 X109.745 Y94.938 E23.86951
G1 X110.581 Y95.318 E23.95301
G1 X111.659 Y96.117 E24.07502
G1 X112.485 Y97.128 E24.19373
G1 X112.889 Y97.9 E24.27296
G1 X113.153 Y98.629 E24.34346
G1 X118.376 Y98.644 E24.81839
G1 X119.745 Y98.903 E24.94508
G1 X120.187 Y99.477 E25.01095
G1 X120.187 Y101.312 E25.17781
G1 X119.57 Y101.928 E25.25709
G1 X111.011 Y101.928 E26.03536
G1 X110.882 Y101.866 E26.04837
G1 X110.418 Y101.282 E26.11619
G1 X110.581 Y99.8 E26.25176
G1 X110.427 Y99.084 E26.31835
G1 X110.129 Y98.507 E26.3774
G1 X109.652 Y97.977 E26.44224
G1 X109.1 Y97.619 E26.50207
G1 X108.653 Y97.449 E26.54556
G1 X107.938 Y97.357 E26.61111
G1 X107.088 Y97.502 E26.68952
G1 X106.458 Y97.82 E26.75369
G1 X105.942 Y98.287 E26.81697
G1 X105.69 Y98.64 E26.85641
G1 X105.412 Y99.289 E26.92061
G1 X105.317 Y99.977 E26.98376
G1 X105.407 Y100.679 E27.04812
G1 X105.788 Y101.495 E27.13001
G1 X106.259 Y102.009 E27.1934
G1 X106.846 Y102.383 E27.25669
G1 X107.716 Y102.616 E27.33859
G1 X117.97 Y102.629 E28.27098
G1 X118.859 Y102.7 E28.35207
G1 X119.714 Y102.882 E28.43156
G1 X120.187 Y103.466 E28.4999
G1 X120.187 Y104.515 E28.59529
G1 X119.805 Y105.044 E28.65462
G1 X118.856 Y105.282 E28.74358
G1 X117.969 Y105.353 E28.82449
G1 X107.541 Y105.337 E29.7727
G1 X106.657 Y105.194 E29.85413
G1 X105.826 Y104.913 E29.9339
G1 X104.969 Y104.446 E30.02265
G1 X104.286 Y103.904 E30.10193
G1 X103.701 Y103.259 E30.18111
G1 X103.216 Y102.506 E30.26255
G1 X102.871 Y101.706 E30.34177
G1 X102.649 Y100.782 E30.42818
G1 X102.591 Y99.907 E30.50792
G1 X102.675 Y99.04 E30.58713
G1 X102.899 Y98.197 E30.66644
G1 X103.256 Y97.402 E30.74568
G1 X103.753 Y96.656 E30.82719
G1 X103.793 Y96.613 E30.83253
G1 X104.249 Y97.039 F7800
G1 F1800
G1 X104.761 Y96.491 E30.90072
G1 X105.35 Y96.033 E30.96856
G1 X106.113 Y95.625 E31.04724
G1 X106.744 Y95.413 E31.10777
G1 X107.336 Y95.296 E31.16264
G1 X108.118 Y95.258 E31.23383
G1 X108.781 Y95.327 E31.29444
G1 X109.525 Y95.524 E31.36442
G1 X110.287 Y95.87 E31.44052
G1 X110.946 Y96.32 E31.51308
G1 X111.501 Y96.854 E31.58311
G1 X111.962 Y97.47 E31.65307
G1 X112.318 Y98.154 E31.72319
G1 X112.649 Y99.253 E31.82756
G1 X117.964 Y99.254 E32.31085
G1 X118.703 Y99.31 E32.37824
G1 X119.432 Y99.467 E32.44605
G1 X119.562 Y99.635 E32.46537
G1 X119.562 Y101.12 E32.6004
G1 X119.379 Y101.303 E32.62393
G1 X111.233 Y101.303 E33.36464
G1 X111.046 Y101.067 E33.39202
G1 X111.213 Y100.033 E33.48726
G1 X111.157 Y99.398 E33.54522
G1 X110.914 Y98.625 E33.6189
G1 X110.442 Y97.886 E33.69863
G1 X109.847 Y97.336 E33.77231
G1 X109.065 Y96.925 E33.85264
G1 X108.272 Y96.745 E33.92658
G1 X107.401 Y96.776 E34.00583
G1 X106.569 Y97.037 E34.08512
G1 X105.835 Y97.511 E34.16457
G1 X105.158 Y98.31 E34.2598
G1 X104.811 Y99.112 E34.33926
G1 X104.69 Y99.975 E34.4185
G1 X104.805 Y100.852 E34.49893
G1 X105.268 Y101.845 E34.59856
G1 X105.855 Y102.489 E34.67779
G1 X106.592 Y102.955 E34.75708
G1 X107.659 Y103.241 E34.85753
G1 X117.951 Y103.253 E35.79338
G1 X118.77 Y103.319 E35.86809
G1 X119.423 Y103.458 E35.9288
G1 X119.562 Y103.63 E35.94891
G1 X119.562 Y104.351 E36.01447
G1 X119.423 Y104.523 E36.03458
G1 X117.952 Y104.728 E36.16963
G1 X107.579 Y104.713 E37.11284
G1 X106.818 Y104.59 E37.18294
G1 X106.089 Y104.346 E37.25284
G1 X104.997 Y103.693 E37.36853
G1 X104.436 Y103.166 E37.43852
G1 X103.968 Y102.554 E37.50858
G1 X103.605 Y101.875 E37.57859
G1 X103.364 Y101.17 E37.64634
G1 X103.216 Y99.906 E37.76206
G1 X103.292 Y99.14 E37.83205
G1 X103.491 Y98.396 E37.90208
G1 X103.808 Y97.694 E37.97212
G1 X104.213 Y97.087 E38.03847
G1 E36.03847 F2400
G92 E0
G1 X106.42 Y98.692 F7800
G1 E2 F2400
G1 F1800
G1 X107.126 Y98.158 E2.08049
G1 X107.613 Y98.011 E2.12675
G1 X108.485 Y98.054 E2.20614
G1 X109.225 Y98.434 E2.28178
G1 X109.606 Y98.851 E2.33314
G1 X109.795 Y99.186 E2.36811
G1 X109.963 Y99.982 E2.44208
G1 X109.754 Y101.171 E2.55185
G1 X109.963 Y101.994 E2.62906
G1 X107.772 Y101.991 E2.82829
G1 X107.424 Y101.928 E2.86045
G1 X106.661 Y101.53 E2.9387
G1 X106.136 Y100.847 E3.01703
G1 X106.005 Y100.494 E3.05127
G1 X105.943 Y99.98 E3.09835
G1 X106.008 Y99.478 E3.14438
G1 X106.392 Y98.745 E3.21962
G1 X106.9 Y99.099 F7800
G1 F1800
G1 X107.375 Y98.736 E3.27398
G1 X108.078 Y98.615 E3.33884
G1 X108.551 Y98.748 E3.38352
G1 X108.832 Y98.925 E3.41372
G1 X109.215 Y99.427 E3.47113
G1 X109.335 Y99.982 E3.52276
G1 X109.069 Y101.368 E3.65109
G1 X107.829 Y101.366 E3.76384
G1 X107.367 Y101.242 E3.80734
G1 X106.82 Y100.784 E3.87221
G1 X106.617 Y100.346 E3.91611
G1 X106.619 Y99.629 E3.98131
G1 X106.872 Y99.152 E4.03041
G1 X107.366 Y99.57 F7800
G1 F1800
G1 X107.557 Y99.344 E4.05732
G1 X107.819 Y99.253 E4.08254
G1 X108.261 Y99.303 E4.12299
G1 X108.638 Y99.672 E4.17096
G1 X108.713 Y99.971 E4.19899
G1 X108.572 Y100.75 E4.27098
G1 X107.747 Y100.725 E4.34603
G1 X107.469 Y100.568 E4.37506
G1 X107.263 Y100.319 E4.40445
G1 X107.2 Y99.99 E4.43491
G1 X107.249 Y99.708 E4.46094
G1 X107.327 Y99.615 E4.47198
G1 E2.47198 F2400
G92 E0
G1 X103.085 Y110.64 F7800
G1 E2 F2400
G1 F1800
G1 X104.303 Y111.187 E2.12141
G1 X104.892 Y111.549 E2.18427
G1 X105.434 Y111.95 E2.24558
G1 X106.344 Y112.817 E2.35987
G1 X107.325 Y114.195 E2.51368
G1 X110.539 Y114.196 E2.80593
G1 X111.725 Y114.29 E2.91411
G1 X113.222 Y114.649 E3.05409
G1 X113.871 Y115.028 E3.12243
G1 X114.213 Y115.34 E3.16452
G1 X114.852 Y116.188 E3.26107
G1 X115.202 Y117.218 E3.35999
G1 X115.211 Y119.63 E3.57931
G1 X114.978 Y120.455 E3.65726
G1 X115.207 Y121.252 E3.73266
G1 X115.217 Y122.738 E3.86778
G1 X115.124 Y123.274 E3.91725
G1 X114.91 Y123.829 E3.97134
G1 X114.054 Y124.934 E4.09844
G1 X113.413 Y125.382 E4.16955
G1 X113.024 Y125.546 E4.20794
G1 X111.077 Y125.898 E4.38785
G1 X99.873 Y125.895 E5.40663
G1 X98.558 Y125.679 E5.5278
G1 X97.302 Y125.246 E5.6486
G1 X96.091 Y124.577 E5.7744
G1 X95.127 Y123.812 E5.8863
G1 X94.66 Y123.339 E5.94674
G1 X93.877 Y122.32 E6.06359
G1 X93.272 Y121.189 E6.18022
G1 X92.865 Y119.997 E6.29475
G1 X92.719 Y119.286 E6.36075
G1 X92.637 Y118.552 E6.42791
G1 X92.661 Y117.273 E6.54423
G1 X92.891 Y116.015 E6.66052
G1 X93.322 Y114.812 E6.77672
G1 X93.901 Y113.758 E6.88607
G1 X94.36 Y113.126 E6.95709
G1 X95.223 Y112.215 E7.07119
G1 X96.238 Y111.442 E7.1872
G1 X97.384 Y110.831 E7.30529
G1 X98.486 Y110.456 E7.41114
G1 X99.481 Y110.261 E7.50334
G1 X100.894 Y110.209 E7.63191
G1 X101.872 Y110.319 E7.7214
G1 X103.027 Y110.624 E7.83002
G1 X102.867 Y111.225 F7800
G1 F1800
G1 X103.989 Y111.727 E7.94179
G1 X104.532 Y112.059 E7.99966
G1 X105.051 Y112.444 E8.05842
G1 X105.885 Y113.242 E8.16338
G1 X106.58 Y114.159 E8.268
G1 X106.965 Y114.82 E8.33756
G1 X110.519 Y114.82 E8.66072
G1 X111.622 Y114.907 E8.76133
G1 X112.977 Y115.224 E8.88787
G1 X113.734 Y115.742 E8.97128
G1 X114.306 Y116.494 E9.05719
G1 X114.583 Y117.308 E9.13537
G1 X114.586 Y119.597 E9.34351
G1 X114.305 Y120.448 E9.425
G1 X114.582 Y121.289 E9.50551
G1 X114.592 Y122.715 E9.63518
G1 X114.359 Y123.533 E9.71252
G1 X113.633 Y124.472 E9.82045
G1 X112.813 Y124.958 E9.90712
G1 X111.04 Y125.274 E10.07088
G1 X99.912 Y125.271 E11.08274
G1 X98.723 Y125.076 E11.1923
G1 X97.567 Y124.68 E11.30341
G1 X96.449 Y124.065 E11.41944
G1 X95.131 Y122.928 E11.57772
G1 X94.396 Y121.971 E11.68744
G1 X93.841 Y120.93 E11.79471
G1 X93.468 Y119.833 E11.90007
G1 X93.334 Y119.175 E11.96113
G1 X93.262 Y118.523 E12.02078
