; generated by PrusaSlicer 2.9.2 on 2025-11-24 at 21:33:50 UTC

; 

; external perimeters extrusion width = 0.45mm
; perimeters extrusion width = 0.45mm
; infill extrusion width = 0.45mm
; solid infill extrusion width = 0.45mm
; top infill extrusion width = 0.40mm
; support material extrusion width = 0.40mm
; first layer extrusion width = 0.50mm

M201 X9000 Y9000 Z500 E10000 ; sets maximum accelerations, mm/sec^2
M203 X500 Y500 Z12 E120 ; sets maximum feedrates, mm / sec
M204 S1500 T1500 ; sets acceleration (S) and retract acceleration (R), mm/sec^2
M205 X10.00 Y10.00 Z0.20 E2.50 ; sets the jerk limits, mm/sec
M205 S0 T0 ; sets the minimum extruding and travel feed rate, mm/sec
M190 S60 ; set bed temperature and wait for it to be reached
M104 S215 ; set temperature
;TYPE:Custom
G28
G1 Z50.00 F400
G92 E0
G1 F200 E3
G92 E0
M132 X Y Z A
M907 X100 Y100 Z50 A100
M109 S215 ; set temperature and wait for it to be reached
G21 ; set units to millimeters
G90 ; use absolute coordinates
M82 ; use absolute distances for extrusion
G92 E0
; Filament gcode
M107
;LAYER_CHANGE
;Z:0.25
;HEIGHT:0.25
G1 E-1 F2400
G92 E0
G1 Z.25 F7800
G1 X.029 Y-44.316
G1 E1 F2400
;TYPE:Skirt/Brim
;WIDTH:0.5
G1 F1800
G1 X11.161 Y-44.309 E1.51644
G1 X16.034 Y-43.922 E1.74322
G1 X20.811 Y-42.883 E1.97002
G1 X24.632 Y-41.541 E2.1579
G1 X29.01 Y-39.365 E2.38471
G1 X39.437 Y-33.125 E2.94845
G1 X42.95 Y-30.713 E3.14614
G1 X43.611 Y-30.186 E3.18536
G1 X47.005 Y-27.057 E3.39952
G1 X49.998 Y-23.484 E3.61575
G1 X52.507 Y-19.557 E3.83194
G1 X54.492 Y-15.339 E4.04821
G1 X55.918 Y-10.902 E4.26442
G1 X56.762 Y-6.318 E4.48066
G1 X57.023 Y-2.064 E4.67839
G1 X57.023 Y2.064 E4.8699
G1 X56.762 Y6.318 E5.06763
G1 X56.659 Y7.112 E5.10477
G1 X55.714 Y11.676 E5.321
G1 X54.19 Y16.081 E5.53724
G1 X52.508 Y19.557 E5.71639
G1 X49.998 Y23.484 E5.93261
G1 X47.005 Y27.057 E6.14884
G1 X43.578 Y30.216 E6.36507
G1 X39.437 Y33.125 E6.59985
G1 X29.377 Y39.161 E7.14412
G1 X25.404 Y41.21 E7.35151
G1 X20.811 Y42.883 E7.57829
G1 X16.034 Y43.922 E7.80509
G1 X11.161 Y44.309 E8.03187
G1 X-10.74 Y44.323 E9.04792
G1 X-16.034 Y43.922 E9.29423
G1 X-20.001 Y43.107 E9.48211
G1 X-24.632 Y41.541 E9.70891
G1 X-29.377 Y39.161 E9.95518
G1 X-39.437 Y33.125 E10.49945
G1 X-42.95 Y30.713 E10.69714
G1 X-46.446 Y27.631 E10.91336
G1 X-47.034 Y27.023 E10.9526
G1 X-49.998 Y23.484 E11.16676
G1 X-52.507 Y19.557 E11.38295
G1 X-54.19 Y16.081 E11.56212
G1 X-55.714 Y11.676 E11.77836
G1 X-56.659 Y7.112 E11.99459
G1 X-57.01 Y2.465 E12.21079
G1 X-57.01 Y-2.465 E12.43951
G1 X-56.659 Y-7.112 E12.65571
G1 X-55.714 Y-11.676 E12.87194
G1 X-54.19 Y-16.081 E13.08818
G1 X-52.113 Y-20.253 E13.30439
G1 X-49.517 Y-24.125 E13.52066
G1 X-46.446 Y-27.63 E13.73685
G1 X-43.578 Y-30.216 E13.91601
G1 X-39.437 Y-33.125 E14.15079
G1 X-29.377 Y-39.161 E14.69506
G1 X-25.404 Y-41.21 E14.90245
G1 X-24.632 Y-41.541 E14.94142
G1 X-20.001 Y-43.107 E15.16822
G1 X-15.201 Y-44.036 E15.39504
G1 X-10.74 Y-44.323 E15.60243
G1 X-.031 Y-44.316 E16.09925
G1 E15.09925 F2400
G92 E0
G92 E0
G1 X-45.869 Y-16.342 F7800
G1 E1 F2400
;TYPE:Perimeter
;WIDTH:0.499999
G1 F1800
G1 X-43.876 Y-19.388 E1.16887
G1 X-41.426 Y-22.238 E1.34323
G1 X-38.701 Y-24.695 E1.51345
G1 X-35.615 Y-26.828 E1.68749
G1 X-25.621 Y-32.825 E2.22821
G1 X-22.118 Y-34.617 E2.41075
G1 X-18.443 Y-35.908 E2.59146
G1 X-14.627 Y-36.692 E2.77219
G1 X-10.702 Y-36.957 E2.9547
G1 X10.749 Y-36.954 E3.94987
G1 X14.627 Y-36.692 E4.13019
G1 X18.443 Y-35.908 E4.31092
G1 X22.118 Y-34.617 E4.49163
G1 X25.621 Y-32.825 E4.67417
G1 X35.615 Y-26.828 E5.21489
G1 X38.7 Y-24.696 E5.38886
G1 X41.488 Y-22.175 E5.56324
G1 X43.876 Y-19.388 E5.73351
G1 X45.91 Y-16.281 E5.90579
G1 X47.528 Y-12.938 E6.07809
G1 X48.703 Y-9.415 E6.25038
G1 X49.416 Y-5.77 E6.42269
G1 X49.657 Y-2.027 E6.5967
G1 X49.657 Y-1.04 E6.64249
G1 X49.657 Y2.027 E6.78478
G1 X49.416 Y5.77 E6.95879
G1 X48.703 Y9.415 E7.1311
G1 X47.528 Y12.938 E7.30339
G1 X45.91 Y16.281 E7.47569
G1 X43.876 Y19.388 E7.64797
G1 X41.459 Y22.209 E7.82031
G1 X38.701 Y24.695 E7.99257
G1 X35.615 Y26.828 E8.16661
G1 X25.621 Y32.825 E8.70733
G1 X22.118 Y34.617 E8.88987
G1 X18.443 Y35.908 E9.07058
G1 X14.627 Y36.692 E9.25131
G1 X10.702 Y36.957 E9.43382
G1 X-10.702 Y36.957 E10.42681
G1 X-14.627 Y36.692 E10.60932
G1 X-18.443 Y35.908 E10.79005
G1 X-22.118 Y34.617 E10.97076
G1 X-25.621 Y32.825 E11.1533
G1 X-35.615 Y26.828 E11.69402
G1 X-38.7 Y24.696 E11.86799
G1 X-41.488 Y22.175 E12.04237
G1 X-43.876 Y19.388 E12.21264
G1 X-45.91 Y16.281 E12.38492
G1 X-47.528 Y12.938 E12.55722
G1 X-48.703 Y9.415 E12.72951
G1 X-49.416 Y5.77 E12.90182
G1 X-49.657 Y2.027 E13.07583
G1 X-49.657 Y-2.027 E13.26391
G1 X-49.416 Y-5.77 E13.43792
G1 X-48.703 Y-9.415 E13.61023
G1 X-47.528 Y-12.938 E13.78252
G1 X-45.91 Y-16.281 E13.95482
G1 X-45.902 Y-16.292 E13.95545
G1 X-46.274 Y-16.539 F7800
G1 F1800
G1 X-44.234 Y-19.657 E14.12831
G1 X-41.746 Y-22.551 E14.30537
G1 X-38.978 Y-25.046 E14.47825
G1 X-35.857 Y-27.203 E14.65426
G1 X-25.837 Y-33.216 E15.19639
G1 X-22.295 Y-35.028 E15.38097
G1 X-18.562 Y-36.339 E15.56452
G1 X-14.687 Y-37.135 E15.74804
G1 X-10.717 Y-37.404 E15.93264
G1 X10.764 Y-37.4 E16.9292
G1 X14.687 Y-37.135 E17.11161
G1 X18.562 Y-36.339 E17.29513
G1 X22.295 Y-35.028 E17.47868
G1 X25.837 Y-33.216 E17.66326
G1 X35.857 Y-27.203 E18.20539
G1 X38.978 Y-25.047 E18.38137
G1 X41.809 Y-22.487 E18.55844
G1 X44.233 Y-19.657 E18.73131
G1 X46.299 Y-16.501 E18.90631
G1 X47.942 Y-13.107 E19.08125
G1 X49.135 Y-9.529 E19.25623
G1 X49.859 Y-5.828 E19.43118
G1 X50.104 Y-2.042 E19.60719
G1 X50.104 Y-1.04 E19.65368
G1 X50.104 Y2.042 E19.79666
G1 X49.859 Y5.828 E19.97267
G1 X49.135 Y9.529 E20.14762
G1 X47.942 Y13.107 E20.3226
G1 X46.299 Y16.501 E20.49754
G1 X44.233 Y19.657 E20.67254
G1 X41.78 Y22.521 E20.84748
G1 X38.978 Y25.046 E21.02247
G1 X35.857 Y27.203 E21.19848
G1 X25.837 Y33.216 E21.74061
G1 X22.295 Y35.028 E21.92519
G1 X18.562 Y36.339 E22.10874
G1 X14.687 Y37.135 E22.29226
G1 X10.717 Y37.404 E22.47686
G1 X-10.717 Y37.404 E23.47124
G1 X-14.687 Y37.135 E23.65584
G1 X-18.562 Y36.339 E23.83936
G1 X-22.295 Y35.028 E24.02291
G1 X-25.837 Y33.216 E24.20749
G1 X-35.857 Y27.203 E24.74962
G1 X-38.978 Y25.047 E24.9256
G1 X-41.809 Y22.487 E25.10267
G1 X-44.233 Y19.657 E25.27554
G1 X-46.299 Y16.501 E25.45054
G1 X-47.942 Y13.107 E25.62548
G1 X-49.135 Y9.529 E25.80046
G1 X-49.859 Y5.828 E25.97541
G1 X-50.104 Y2.042 E26.15142
G1 X-50.104 Y-2.042 E26.34089
G1 X-49.859 Y-5.828 E26.5169
G1 X-49.135 Y-9.529 E26.69185
G1 X-47.942 Y-13.107 E26.86683
G1 X-46.305 Y-16.488 E27.0411
G1 X-46.679 Y-16.735 F7800
;TYPE:External perimeter
G1 F1800
G1 X-44.591 Y-19.925 E27.21798
G1 X-42.066 Y-22.863 E27.3977
G1 X-39.256 Y-25.397 E27.57324
G1 X-36.099 Y-27.579 E27.75128
G1 X-26.054 Y-33.606 E28.29474
G1 X-22.471 Y-35.439 E28.48145
G1 X-18.682 Y-36.77 E28.66776
G1 X-14.748 Y-37.578 E28.85408
G1 X-10.732 Y-37.85 E29.04082
G1 X10.779 Y-37.847 E30.03877
G1 X14.748 Y-37.578 E30.22332
G1 X18.682 Y-36.77 E30.40964
G1 X22.471 Y-35.439 E30.59595
G1 X26.054 Y-33.606 E30.78266
G1 X36.099 Y-27.579 E31.32612
G1 X39.256 Y-25.397 E31.50416
G1 X42.129 Y-22.799 E31.68386
G1 X44.591 Y-19.926 E31.85939
G1 X46.688 Y-16.722 E32.03704
G1 X48.356 Y-13.275 E32.21469
G1 X49.568 Y-9.643 E32.39232
G1 X50.303 Y-5.885 E32.56997
G1 X50.55 Y-2.056 E32.74798
G1 X50.55 Y-1.04 E32.79511
G1 X50.55 Y2.056 E32.93874
G1 X50.303 Y5.885 E33.11675
G1 X49.568 Y9.643 E33.2944
G1 X48.356 Y13.275 E33.47203
G1 X46.688 Y16.722 E33.64968
G1 X44.591 Y19.926 E33.82733
G1 X42.1 Y22.833 E34.00493
G1 X39.256 Y25.397 E34.18257
G1 X36.099 Y27.579 E34.36061
G1 X26.054 Y33.606 E34.90407
G1 X22.471 Y35.439 E35.09078
G1 X18.682 Y36.77 E35.27709
G1 X14.748 Y37.578 E35.46341
G1 X10.732 Y37.85 E35.65015
G1 X-10.732 Y37.85 E36.64592
G1 X-14.748 Y37.578 E36.83266
G1 X-18.682 Y36.77 E37.01898
G1 X-22.471 Y35.439 E37.20529
G1 X-26.054 Y33.606 E37.392
G1 X-36.099 Y27.579 E37.93546
G1 X-39.256 Y25.397 E38.1135
G1 X-42.129 Y22.799 E38.2932
G1 X-44.591 Y19.926 E38.46873
G1 X-46.688 Y16.722 E38.64638
G1 X-48.356 Y13.275 E38.82403
G1 X-49.568 Y9.643 E39.00166
G1 X-50.303 Y5.885 E39.17931
G1 X-50.55 Y2.056 E39.35732
G1 X-50.55 Y-2.056 E39.54809
G1 X-50.303 Y-5.885 E39.7261
G1 X-49.568 Y-9.643 E39.90375
G1 X-48.356 Y-13.275 E40.08138
G1 X-46.707 Y-16.682 E40.25698
G1 X-46.492 Y-17.02 F7800
G1 E39.25698 F2400
G92 E0
G1 X36.511 Y-26.046 F7800
G1 E1 F2400
;TYPE:Solid infill
;WIDTH:0.500466
G1 F1800
G1 X44.057 Y-18.501 E1.49557
G1 X45.254 Y-16.671 E1.59712
G1 X35.296 Y-26.629 E2.25114
G1 X33.716 Y-27.577 E2.33671
G1 X46.03 Y-15.263 E3.14546
G1 X46.623 Y-14.038 E3.20867
G1 X32.136 Y-28.525 E4.16014
G1 X30.557 Y-29.473 E4.24567
G1 X47.216 Y-12.814 E5.33979
G1 X47.533 Y-11.865 E5.38626
G1 X28.977 Y-30.421 E6.60497
G1 X27.397 Y-31.369 E6.69054
G1 X47.849 Y-10.917 E8.03378
G1 X48.165 Y-9.969 E8.08019
G1 X25.817 Y-32.317 E9.54795
G1 X25.458 Y-32.532 E9.56738
G1 X24.459 Y-33.043 E9.61949
G1 X48.429 Y-9.073 E11.19378
G1 X48.582 Y-8.288 E11.23092
G1 X23.165 Y-33.705 E12.90025
G1 X21.9 Y-34.339 E12.96596
G1 X48.736 Y-7.502 E14.72852
G1 X48.89 Y-6.717 E14.76567
G1 X20.926 Y-34.681 E16.60228
G1 X19.952 Y-35.023 E16.65022
G1 X49.043 Y-5.931 E18.56088
G1 X49.083 Y-5.727 E18.57053
G1 X49.116 Y-5.227 E18.5938
G1 X18.978 Y-35.365 E20.57319
G1 X18.353 Y-35.584 E20.60395
G1 X18.068 Y-35.643 E20.61747
G1 X49.159 Y-4.552 E22.65945
G1 X49.203 Y-3.876 E22.69091
G1 X17.272 Y-35.806 E24.78803
G1 X16.477 Y-35.97 E24.82573
G1 X49.246 Y-3.201 E26.97792
G1 X49.29 Y-2.525 E27.00938
G1 X15.682 Y-36.133 E29.21667
G1 X14.887 Y-36.297 E29.25437
G1 X49.323 Y-1.861 E31.51604
G1 X49.323 Y-1.229 E31.54539
G1 X14.164 Y-36.388 E33.85455
G1 X13.486 Y-36.433 E33.88611
G1 X49.323 Y-.597 E36.23976
G1 X49.323 Y.035 E36.26911
G1 X12.808 Y-36.479 E38.66729
G1 X12.13 Y-36.525 E38.69885
G1 X49.323 Y.667 E41.14156
G1 X49.323 Y1.299 E41.17091
G1 X11.453 Y-36.571 E43.65812
G1 X10.775 Y-36.617 E43.68968
G1 X49.323 Y1.931 E46.22142
G1 X49.289 Y2.53 E46.24928
G1 X10.14 Y-36.619 E48.82049
G1 X9.509 Y-36.62 E48.84979
G1 X49.251 Y3.123 E51.45998
G1 X49.213 Y3.717 E51.48762
G1 X8.877 Y-36.62 E54.13682
G1 X8.245 Y-36.62 E54.16617
G1 X49.175 Y4.31 E56.85435
G1 X49.136 Y4.904 E56.882
G1 X7.613 Y-36.62 E59.60916
G1 X6.981 Y-36.62 E59.63851
G1 X49.098 Y5.498 E62.40468
G1 X49.083 Y5.727 E62.41534
G1 X49.02 Y6.051 E62.43067
G1 X6.349 Y-36.62 E65.2332
G1 X5.717 Y-36.62 E65.26255
G1 X48.916 Y6.58 E68.09979
G1 X48.813 Y7.108 E68.12477
G1 X5.085 Y-36.62 E70.99672
G1 X4.453 Y-36.62 E71.02607
G1 X48.71 Y7.637 E73.93276
G1 X48.606 Y8.165 E73.95775
G1 X3.821 Y-36.62 E76.89912
G1 X3.189 Y-36.62 E76.92847
G1 X48.503 Y8.694 E79.90458
G1 X48.4 Y9.222 E79.92956
G1 X2.557 Y-36.621 E82.94042
G1 X1.925 Y-36.621 E82.96977
G1 X48.253 Y9.707 E86.01248
G1 X48.095 Y10.181 E86.03568
G1 X1.293 Y-36.621 E89.10952
G1 X.661 Y-36.621 E89.13887
G1 X47.936 Y10.655 E92.24381
G1 X47.778 Y11.129 E92.26701
G1 X.029 Y-36.621 E95.40308
G1 X-.603 Y-36.621 E95.43243
G1 X47.62 Y11.603 E98.59963
G1 X47.462 Y12.076 E98.62279
G1 X-1.235 Y-36.621 E101.82109
G1 X-1.867 Y-36.621 E101.85044
G1 X47.304 Y12.55 E105.07987
G1 X47.217 Y12.812 E105.09269
G1 X47.125 Y13.002 E105.10249
G1 X-2.499 Y-36.621 E108.36164
G1 X-3.131 Y-36.621 E108.39099
G1 X46.918 Y13.428 E111.67808
G1 X46.712 Y13.854 E111.70006
G1 X-3.763 Y-36.622 E115.01517
G1 X-4.395 Y-36.622 E115.04452
G1 X46.506 Y14.28 E118.3876
G1 X46.3 Y14.706 E118.40958
G1 X-5.027 Y-36.622 E121.78064
G1 X-5.659 Y-36.622 E121.80999
G1 X46.094 Y15.131 E125.209
G1 X45.888 Y15.557 E125.23098
G1 X-6.291 Y-36.622 E128.65797
G1 X-6.923 Y-36.622 E128.68732
G1 X45.682 Y15.983 E132.14229
G1 X45.618 Y16.116 E132.14914
G1 X45.446 Y16.379 E132.16373
G1 X-7.555 Y-36.622 E135.6447
G1 X-8.187 Y-36.622 E135.67405
G1 X45.196 Y16.761 E139.18011
G1 X44.946 Y17.142 E139.20127
G1 X-8.819 Y-36.622 E142.73239
G1 X-9.451 Y-36.622 E142.76174
G1 X44.696 Y17.524 E146.31795
G1 X44.446 Y17.906 E146.33915
G1 X-10.083 Y-36.622 E149.92045
G1 X-10.713 Y-36.621 E149.94971
G1 X44.196 Y18.288 E153.556
G1 X43.946 Y18.67 E153.5772
G1 X-11.305 Y-36.581 E157.20595
G1 X-11.897 Y-36.541 E157.23351
G1 X43.696 Y19.052 E160.88472
G1 X43.607 Y19.187 E160.89223
G1 X43.419 Y19.407 E160.90567
G1 X-12.489 Y-36.501 E164.57757
G1 X-13.081 Y-36.461 E164.60513
G1 X43.127 Y19.747 E168.29673
G1 X42.836 Y20.088 E168.31755
G1 X-13.673 Y-36.421 E172.02892
G1 X-14.265 Y-36.381 E172.05648
G1 X42.544 Y20.428 E175.78755
G1 X42.253 Y20.768 E175.80833
G1 X-14.825 Y-36.309 E179.55704
G1 X-15.349 Y-36.202 E179.58188
G1 X41.961 Y21.109 E183.34589
G1 X41.669 Y21.449 E183.3667
G1 X-15.873 Y-36.094 E187.14595
G1 X-16.398 Y-35.986 E187.17084
G1 X41.378 Y21.789 E190.96539
G1 X41.219 Y21.975 E190.97675
G1 X41.068 Y22.111 E190.98619
G1 X-16.922 Y-35.878 E194.7948
G1 X-17.446 Y-35.771 E194.81964
G1 X40.735 Y22.411 E198.64086
G1 X40.403 Y22.71 E198.66161
G1 X-17.97 Y-35.663 E202.4954
G1 X-18.353 Y-35.584 E202.51356
G1 X-18.479 Y-35.54 E202.51976
G1 X40.071 Y23.01 E206.36518
G1 X39.738 Y23.309 E206.38596
G1 X-18.947 Y-35.376 E210.24025
G1 X-19.414 Y-35.212 E210.26324
G1 X39.406 Y23.609 E214.12643
G1 X39.074 Y23.908 E214.14718
G1 X-19.882 Y-35.047 E218.01923
G1 X-20.35 Y-34.883 E218.04226
G1 X38.741 Y24.208 E221.92321
G1 X38.493 Y24.432 E221.93873
G1 X38.399 Y24.497 E221.94404
G1 X-20.817 Y-34.719 E225.8332
G1 X-21.285 Y-34.555 E225.85623
G1 X38.025 Y24.755 E229.75156
G1 X37.652 Y25.014 E229.77265
G1 X-21.753 Y-34.39 E233.67419
G1 X-21.986 Y-34.308 E233.68566
G1 X-22.195 Y-34.201 E233.69656
G1 X37.278 Y25.272 E237.6026
G1 X36.904 Y25.53 E237.6237
G1 X-22.613 Y-33.987 E241.53263
G1 X-23.031 Y-33.774 E241.55442
G1 X36.531 Y25.789 E245.46634
G1 X36.157 Y26.047 E245.48744
G1 X-23.449 Y-33.56 E249.40225
G1 X-23.868 Y-33.346 E249.4241
G1 X35.783 Y26.305 E253.34183
G1 X35.408 Y26.562 E253.36294
G1 X-24.286 Y-33.132 E257.28349
G1 X-24.704 Y-32.918 E257.3053
G1 X35.013 Y26.799 E261.22737
G1 X34.619 Y27.036 E261.24872
G1 X-25.122 Y-32.704 E265.17233
G1 X-25.535 Y-32.486 E265.19402
G1 X34.224 Y27.273 E269.11884
G1 X33.829 Y27.51 E269.14023
G1 X-25.93 Y-32.249 E273.06505
G1 X-26.325 Y-32.012 E273.08644
G1 X33.434 Y27.747 E277.01126
G1 X33.039 Y27.984 E277.03265
G1 X-26.72 Y-31.775 E280.95747
G1 X-27.115 Y-31.538 E280.97886
G1 X32.644 Y28.221 E284.90368
G1 X32.249 Y28.458 E284.92507
G1 X-27.51 Y-31.301 E288.84989
G1 X-27.905 Y-31.064 E288.87128
G1 X31.854 Y28.695 E292.7961
G1 X31.459 Y28.932 E292.81749
G1 X-28.3 Y-30.827 E296.74231
G1 X-28.695 Y-30.59 E296.7637
G1 X31.064 Y29.169 E300.68852
G1 X30.669 Y29.405 E300.70989
G1 X-29.09 Y-30.353 E304.63468
G1 X-29.484 Y-30.116 E304.65603
G1 X30.274 Y29.642 E308.58079
G1 X29.879 Y29.879 E308.60218
G1 X-29.879 Y-29.879 E312.52694
G1 X-30.274 Y-29.642 E312.54833
G1 X29.484 Y30.116 E316.47309
G1 X29.089 Y30.353 E316.49448
G1 X-30.669 Y-29.405 E320.41924
G1 X-31.064 Y-29.168 E320.44063
G1 X28.695 Y30.59 E324.36542
G1 X28.3 Y30.827 E324.38681
G1 X-31.459 Y-28.932 E328.31163
G1 X-31.854 Y-28.695 E328.33302
G1 X27.905 Y31.064 E332.25784
G1 X27.51 Y31.301 E332.27923
G1 X-32.249 Y-28.458 E336.20405
G1 X-32.644 Y-28.221 E336.22544
G1 X27.115 Y31.538 E340.15026
G1 X26.72 Y31.775 E340.17165
G1 X-33.039 Y-27.984 E344.09647
G1 X-33.434 Y-27.747 E344.11786
G1 X26.325 Y32.012 E348.04268
G1 X25.93 Y32.249 E348.06407
G1 X-33.829 Y-27.51 E351.98889
G1 X-34.224 Y-27.273 E352.01028
G1 X25.535 Y32.486 E355.9351
G1 X25.122 Y32.704 E355.95679
G1 X-34.619 Y-27.036 E359.8804
G1 X-35.014 Y-26.799 E359.90179
G1 X24.704 Y32.918 E363.82389
G1 X24.285 Y33.132 E363.84574
G1 X-35.408 Y-26.562 E367.76626
G1 X-35.783 Y-26.305 E367.78737
G1 X23.867 Y33.346 E371.70507
G1 X23.449 Y33.56 E371.72688
G1 X-36.157 Y-26.047 E375.64169
G1 X-36.531 Y-25.789 E375.66279
G1 X23.031 Y33.774 E379.57471
G1 X22.613 Y33.987 E379.5965
G1 X-36.904 Y-25.53 E383.50543
G1 X-37.278 Y-25.272 E383.52653
G1 X22.195 Y34.201 E387.43257
G1 X21.986 Y34.308 E387.44347
G1 X21.753 Y34.39 E387.45494
G1 X-37.652 Y-25.014 E391.35648
G1 X-38.025 Y-24.755 E391.37757
G1 X21.285 Y34.555 E395.2729
G1 X20.817 Y34.719 E395.29593
G1 X-38.399 Y-24.497 E399.18509
G1 X-38.742 Y-24.208 E399.20592
