; generated by PrusaSlicer 2.9.2 on 2025-09-03 at 18:05:37 UTC

; 

; external perimeters extrusion width = 0.45mm
; perimeters extrusion width = 0.45mm
; infill extrusion width = 0.45mm
; solid infill extrusion width = 0.45mm
; top infill extrusion width = 0.40mm
; first layer extrusion width = 0.70mm

; external perimeters extrusion width = 0.45mm
; perimeters extrusion width = 0.45mm
; infill extrusion width = 0.45mm
; solid infill extrusion width = 0.45mm
; top infill extrusion width = 0.40mm
; first layer extrusion width = 0.70mm

; external perimeters extrusion width = 0.45mm
; perimeters extrusion width = 0.45mm
; infill extrusion width = 0.45mm
; solid infill extrusion width = 0.45mm
; top infill extrusion width = 0.40mm
; first layer extrusion width = 0.70mm

; external perimeters extrusion width = 0.45mm
; perimeters extrusion width = 0.45mm
; infill extrusion width = 0.45mm
; solid infill extrusion width = 0.45mm
; top infill extrusion width = 0.40mm
; first layer extrusion width = 0.70mm

; external perimeters extrusion width = 0.45mm
; perimeters extrusion width = 0.45mm
; infill extrusion width = 0.45mm
; solid infill extrusion width = 0.45mm
; top infill extrusion width = 0.40mm
; first layer extrusion width = 0.70mm

M104 S200 ; set temperature
;TYPE:Custom
G28 ; home all axes
G1 Z5 F5000 ; lift nozzle
M109 S200 ; set temperature and wait for it to be reached
G21 ; set units to millimeters
G90 ; use absolute coordinates
M82 ; use absolute distances for extrusion
G92 E0
; Filament gcode
M107
;LAYER_CHANGE
;Z:0.35
;HEIGHT:0.35
G1 E-2 F2400
G92 E0
G1 Z.35 F7800
G1 X78.371 Y57.146
G1 E2 F2400
;TYPE:Skirt/Brim
;WIDTH:0.7
G1 F1800
G1 X79.978 Y55.588 E2.20352
G1 X82.028 Y54.688 E2.4071
G1 X83.375 Y54.515 E2.53059
G1 X114.463 Y53.902 E5.35796
G1 X115.575 Y53.978 E5.45931
G1 X118.665 Y54.467 E5.74378
G1 X120.544 Y55.078 E5.92344
G1 X123.333 Y56.499 E6.20806
G1 X124.93 Y57.659 E6.38754
G1 X127.142 Y59.871 E6.67199
G1 X128.302 Y61.468 E6.85147
G1 X129.723 Y64.256 E7.13601
G1 X147.944 Y111.813 E11.76688
G1 X148.283 Y113.08 E11.88614
G1 X148.772 Y116.17 E12.17061
G1 X148.772 Y118.144 E12.3501
G1 X148.283 Y121.234 E12.63457
G1 X147.672 Y123.114 E12.81432
G1 X146.251 Y125.902 E13.09886
G1 X145.091 Y127.499 E13.27834
G1 X142.879 Y129.711 E13.56279
G1 X141.282 Y130.871 E13.74227
G1 X138.02 Y132.51 E14.07422
G1 X105.892 Y145.666 E17.23105
G1 X103.5 Y146.137 E17.45273
G1 X83.5 Y146.137 E19.27132
G1 X81.297 Y145.74 E19.47486
G1 X79.371 Y144.599 E19.67842
G1 X78.371 Y143.505 E19.81319
G1 X54.244 Y109.884 E23.57605
G1 X53.749 Y109.07 E23.66268
G1 X52.328 Y106.282 E23.94722
G1 X51.717 Y104.402 E24.12697
G1 X51.228 Y101.312 E24.41144
G1 X51.228 Y99.339 E24.59084
G1 X51.717 Y96.249 E24.87531
G1 X52.328 Y94.369 E25.05506
G1 X53.749 Y91.581 E25.3396
G1 X54.244 Y90.767 E25.42623
G1 X78.336 Y57.195 E29.18362
G1 E27.18362 F2400
G92 E0
G92 E0
G1 X124.567 Y114.568 F7800
G1 E2 F2400
;TYPE:Perimeter
;WIDTH:0.7
G1 F1800
G1 X125.758 Y112.231 E2.23851
G1 X127.611 Y110.377 E2.47686
G1 X129.948 Y109.186 E2.71537
G1 X132.537 Y108.777 E2.95371
G1 X135.127 Y109.186 E3.19214
G1 X137.463 Y110.377 E3.43057
G1 X139.317 Y112.231 E3.66898
G1 X140.508 Y114.568 E3.90749
G1 X140.918 Y117.157 E4.14584
G1 X140.713 Y118.451 E4.26497
G1 X140.508 Y119.746 E4.38419
G1 X139.317 Y122.083 E4.6227
G1 X137.463 Y123.937 E4.86111
G1 X135.127 Y125.128 E5.09954
G1 X132.537 Y125.537 E5.33797
G1 X129.948 Y125.128 E5.57631
G1 X127.611 Y123.937 E5.81482
G1 X125.758 Y122.083 E6.05317
G1 X124.567 Y119.746 E6.29168
G1 X124.157 Y117.157 E6.53003
G1 X124.557 Y114.627 E6.76294
G1 X123.965 Y114.372 F7800
G1 F1800
G1 X125.246 Y111.859 E7.01942
G1 X127.24 Y109.866 E7.27577
G1 X129.752 Y108.585 E7.53217
G1 X132.537 Y108.144 E7.78856
G1 X135.322 Y108.585 E8.04495
G1 X137.835 Y109.866 E8.30143
G1 X139.829 Y111.859 E8.55778
G1 X141.11 Y114.372 E8.81426
G1 X141.55 Y117.157 E9.07064
G1 X141.33 Y118.548 E9.1987
G1 X141.11 Y119.942 E9.32702
G1 X139.829 Y122.455 E9.5835
G1 X137.835 Y124.449 E9.83992
G1 X135.322 Y125.729 E10.09636
G1 X132.537 Y126.17 E10.35275
G1 X129.752 Y125.729 E10.60914
G1 X127.24 Y124.449 E10.8655
G1 X125.246 Y122.455 E11.12192
G1 X123.965 Y119.942 E11.3784
G1 X123.524 Y117.157 E11.63479
G1 X123.956 Y114.431 E11.88576
G1 X123.363 Y114.177 F7800
;TYPE:External perimeter
G1 F1800
G1 X124.734 Y111.487 E12.1603
G1 X126.868 Y109.354 E12.43465
G1 X129.557 Y107.983 E12.70911
G1 X132.537 Y107.511 E12.98346
G1 X135.518 Y107.983 E13.2579
G1 X138.207 Y109.354 E13.53236
G1 X140.341 Y111.487 E13.80671
G1 X141.711 Y114.177 E14.08121
G1 X142.183 Y117.157 E14.35556
G1 X141.947 Y118.646 E14.49264
G1 X141.711 Y120.138 E14.62999
G1 X140.341 Y122.827 E14.9044
G1 X138.207 Y124.96 E15.17875
G1 X135.518 Y126.331 E15.45321
G1 X132.537 Y126.803 E15.72765
G1 X129.557 Y126.331 E16.002
G1 X126.868 Y124.96 E16.27646
G1 X124.734 Y122.827 E16.55081
G1 X123.363 Y120.138 E16.82527
G1 X122.892 Y117.157 E17.09969
G1 X123.354 Y114.236 E17.3686
G1 X123.521 Y113.872 F7800
G1 E15.3686 F2400
G92 E0
G1 X136.505 Y110.099 F7800
G1 E2 F2400
;TYPE:Solid infill
;WIDTH:0.72478
G1 F1800
G1 X138.951 Y112.546 E2.32708
G1 X139.907 Y114.42 E2.52596
G1 X135.275 Y109.788 E3.14523
G1 X134.98 Y109.638 E3.17652
G1 X134.06 Y109.492 E3.26458
G1 X140.202 Y115.634 E4.08572
G1 X140.375 Y116.726 E4.19024
G1 X132.969 Y109.319 E5.18044
G1 X132.537 Y109.251 E5.22178
G1 X132.058 Y109.327 E5.26763
G1 X140.367 Y117.637 E6.37855
G1 X140.242 Y118.43 E6.45444
G1 X131.264 Y109.453 E7.65467
G1 X130.471 Y109.578 E7.73056
G1 X140.116 Y119.223 E9.02003
G1 X140.057 Y119.6 E9.0561
G1 X139.894 Y119.92 E9.09005
G1 X129.775 Y109.801 E10.44289
G1 X129.166 Y110.111 E10.50749
G1 X139.583 Y120.528 E11.90017
G1 X139.273 Y121.137 E11.96477
G1 X128.558 Y110.421 E13.39736
G1 X127.949 Y110.731 E13.46196
G1 X138.963 Y121.745 E14.93446
G1 X138.933 Y121.804 E14.94072
G1 X138.518 Y122.219 E14.9962
G1 X127.475 Y111.176 E16.47257
G1 X127.016 Y111.636 E16.534
G1 X138.059 Y122.678 E18.01031
G1 X137.599 Y123.138 E18.07181
G1 X126.557 Y112.095 E19.54812
G1 X126.142 Y112.51 E19.6036
G1 X126.112 Y112.569 E19.60986
G1 X137.126 Y123.583 E21.08236
G1 X136.517 Y123.893 E21.14696
G1 X125.801 Y113.177 E22.57962
G1 X125.491 Y113.786 E22.64422
G1 X135.908 Y124.203 E24.0369
G1 X135.3 Y124.513 E24.10142
G1 X125.181 Y114.395 E25.45419
G1 X125.018 Y114.714 E25.48806
G1 X124.958 Y115.091 E25.52415
G1 X134.603 Y124.736 E26.81362
G1 X133.81 Y124.861 E26.88951
G1 X124.833 Y115.884 E28.08967
G1 X124.707 Y116.677 E28.16558
G1 X133.017 Y124.987 E29.27657
G1 X132.537 Y125.063 E29.32251
G1 X132.106 Y124.995 E29.36376
G1 X124.7 Y117.588 E30.35396
G1 X124.873 Y118.68 E30.45848
G1 X131.014 Y124.822 E31.27956
G1 X130.095 Y124.676 E31.36753
G1 X129.8 Y124.526 E31.39882
G1 X125.168 Y119.895 E32.01802
G1 X126.123 Y121.768 E32.21677
G1 X128.57 Y124.215 E32.54392
G1 E30.54392 F2400
G92 E0
G92 E0
G1 X107.808 Y75.139 F7800
G1 E2 F2400
;TYPE:Perimeter
;WIDTH:0.7
G1 F1800
G1 X106.617 Y72.802 E2.23851
G1 X106.208 Y70.213 E2.47685
G1 X106.617 Y67.623 E2.71528
G1 X107.808 Y65.287 E2.95371
G1 X109.662 Y63.433 E3.19212
G1 X111.999 Y62.242 E3.43063
G1 X114.588 Y61.833 E3.66897
G1 X117.177 Y62.242 E3.90731
G1 X119.514 Y63.433 E4.14582
G1 X121.368 Y65.287 E4.38423
G1 X122.559 Y67.624 E4.62274
G1 X122.968 Y70.213 E4.86108
G1 X122.764 Y71.507 E4.9802
G1 X122.559 Y72.802 E5.09942
G1 X121.368 Y75.139 E5.33793
G1 X119.514 Y76.993 E5.57634
G1 X117.177 Y78.183 E5.81481
G1 X114.588 Y78.593 E6.05316
G1 X111.999 Y78.183 E6.29151
G1 X109.662 Y76.993 E6.52998
G1 X107.851 Y75.181 E6.76293
G1 X107.296 Y75.511 F7800
G1 F1800
G1 X106.016 Y72.998 E7.01937
G1 X105.575 Y70.213 E7.27576
G1 X106.016 Y67.428 E7.53215
G1 X107.296 Y64.915 E7.78859
G1 X109.29 Y62.921 E8.04501
G1 X111.803 Y61.641 E8.30145
G1 X114.588 Y61.2 E8.55784
G1 X117.373 Y61.641 E8.81423
G1 X119.886 Y62.921 E9.07067
G1 X121.88 Y64.915 E9.32709
G1 X123.16 Y67.428 E9.58353
G1 X123.601 Y70.213 E9.83992
G1 X123.381 Y71.604 E9.96798
G1 X123.16 Y72.998 E10.09632
G1 X121.88 Y75.511 E10.35276
G1 X119.886 Y77.504 E10.60911
G1 X117.373 Y78.785 E10.86559
G1 X114.588 Y79.226 E11.12198
G1 X111.803 Y78.785 E11.37837
G1 X109.29 Y77.504 E11.63485
G1 X107.339 Y75.553 E11.88574
G1 X106.785 Y75.883 F7800
;TYPE:External perimeter
G1 F1800
G1 X105.414 Y73.193 E12.16028
G1 X104.942 Y70.213 E12.43463
G1 X105.414 Y67.232 E12.70907
G1 X106.785 Y64.543 E12.98353
G1 X108.918 Y62.41 E13.25782
G1 X111.608 Y61.039 E13.53236
G1 X114.588 Y60.567 E13.80671
G1 X117.568 Y61.039 E14.08106
G1 X120.258 Y62.41 E14.3556
G1 X122.391 Y64.543 E14.62989
G1 X123.762 Y67.232 E14.90435
G1 X124.234 Y70.213 E15.17879
G1 X123.998 Y71.702 E15.31587
G1 X123.762 Y73.193 E15.45313
G1 X122.391 Y75.883 E15.72767
G1 X120.258 Y78.016 E16.00196
G1 X117.568 Y79.387 E16.2765
G1 X114.588 Y79.859 E16.55085
G1 X111.608 Y79.387 E16.8252
G1 X108.918 Y78.016 E17.09974
G1 X106.827 Y75.925 E17.36863
G1 X106.631 Y75.576 F7800
G1 E15.36863 F2400
G92 E0
G1 X118.555 Y63.155 F7800
G1 E2 F2400
;TYPE:Solid infill
;WIDTH:0.72478
G1 F1800
G1 X121.002 Y65.602 E2.32715
G1 X121.957 Y67.476 E2.52599
G1 X117.325 Y62.844 E3.14526
G1 X117.031 Y62.694 E3.17646
G1 X116.111 Y62.548 E3.26452
G1 X122.253 Y68.69 E4.08566
G1 X122.426 Y69.782 E4.19018
G1 X115.019 Y62.375 E5.18045
G1 X114.588 Y62.307 E5.2217
G1 X114.108 Y62.383 E5.26764
G1 X122.418 Y70.693 E6.37863
G1 X122.292 Y71.486 E6.45454
G1 X113.315 Y62.509 E7.6547
G1 X112.522 Y62.634 E7.73059
G1 X122.167 Y72.279 E9.02006
G1 X122.107 Y72.656 E9.05615
G1 X121.944 Y72.975 E9.09002
G1 X111.825 Y62.857 E10.44279
G1 X111.217 Y63.167 E10.50731
G1 X121.634 Y73.584 E11.89999
G1 X121.324 Y74.193 E11.96459
G1 X110.608 Y63.477 E13.39725
G1 X110 Y63.787 E13.46177
G1 X121.014 Y74.801 E14.93427
G1 X120.984 Y74.86 E14.94053
G1 X120.569 Y75.275 E14.99601
G1 X109.526 Y64.232 E16.47238
G1 X109.067 Y64.692 E16.53381
G1 X120.109 Y75.734 E18.01005
G1 X119.65 Y76.194 E18.07148
G1 X108.607 Y65.151 E19.54785
G1 X108.192 Y65.566 E19.60333
G1 X108.162 Y65.625 E19.60959
G1 X119.176 Y76.639 E21.08209
G1 X118.568 Y76.949 E21.14661
G1 X107.852 Y66.233 E22.57927
G1 X107.542 Y66.842 E22.64387
G1 X117.959 Y77.259 E24.03655
G1 X117.35 Y77.569 E24.10115
G1 X107.232 Y67.451 E25.45386
G1 X107.069 Y67.77 E25.48773
G1 X107.009 Y68.147 E25.52382
G1 X116.654 Y77.792 E26.81329
G1 X115.861 Y77.917 E26.88918
G1 X106.884 Y68.94 E28.08934
G1 X106.758 Y69.733 E28.16525
G1 X115.068 Y78.043 E29.27624
G1 X114.588 Y78.119 E29.32218
G1 X114.157 Y78.051 E29.36343
G1 X106.75 Y70.644 E30.3537
G1 X106.923 Y71.736 E30.45822
G1 X113.065 Y77.878 E31.27936
G1 X112.145 Y77.732 E31.36742
G1 X111.851 Y77.582 E31.39862
G1 X107.219 Y72.95 E32.01789
G1 X108.174 Y74.824 E32.21673
G1 X110.62 Y77.271 E32.54381
G1 E30.54381 F2400
G92 E0
G92 E0
G1 X117.751 Y88.953 F7800
G1 E2 F2400
;TYPE:Perimeter
;WIDTH:0.7
G1 F1800
G1 X117.996 Y88.953 E2.02228
G1 X119.631 Y89.213 E2.17282
G1 X120.095 Y89.364 E2.21719
G1 X121.57 Y90.115 E2.36769
G1 X121.965 Y90.403 E2.41214
G1 X123.136 Y91.573 E2.56266
G1 X123.423 Y91.968 E2.60706
G1 X124.174 Y93.443 E2.75756
G1 X124.325 Y93.908 E2.80202
G1 X124.584 Y95.543 E2.95254
G1 X124.584 Y96.031 E2.99691
G1 X124.325 Y97.666 E3.14743
G1 X124.174 Y98.131 E3.19189
G1 X123.423 Y99.606 E3.34239
G1 X123.136 Y100.001 E3.38679
G1 X121.965 Y101.171 E3.53731
G1 X121.57 Y101.459 E3.58176
G1 X120.095 Y102.21 E3.73226
G1 X119.63 Y102.361 E3.77672
G1 X117.995 Y102.62 E3.92724
G1 X117.507 Y102.62 E3.97161
G1 X115.872 Y102.361 E4.12213
G1 X115.407 Y102.21 E4.16659
G1 X113.932 Y101.459 E4.31709
G1 X113.537 Y101.171 E4.36154
G1 X112.367 Y100.001 E4.51199
G1 X112.08 Y99.606 E4.55639
G1 X111.328 Y98.131 E4.70694
G1 X111.177 Y97.667 E4.75131
G1 X110.917 Y96.031 E4.90194
G1 X110.917 Y95.542 E4.9464
G1 X111.177 Y93.907 E5.09694
G1 X111.328 Y93.443 E5.14131
G1 X112.08 Y91.968 E5.29186
G1 X112.367 Y91.573 E5.33626
G1 X113.537 Y90.403 E5.48671
G1 X113.94 Y90.112 E5.53191
G1 X115.443 Y89.356 E5.68489
G1 X115.9 Y89.209 E5.72854
G1 X117.507 Y88.953 E5.87651
G1 X117.691 Y88.953 E5.89324
G1 X117.751 Y89.57 F7800
G1 F1800
G1 X117.898 Y89.57 E5.90661
G1 X119.533 Y89.83 E6.05715
G1 X119.812 Y89.921 E6.08383
G1 X121.286 Y90.672 E6.23425
G1 X121.523 Y90.844 E6.26088
G1 X122.694 Y92.015 E6.41146
G1 X122.866 Y92.252 E6.43809
G1 X123.618 Y93.727 E6.58864
G1 X123.708 Y94.006 E6.6153
G1 X123.967 Y95.641 E6.76582
G1 X123.967 Y95.934 E6.79246
G1 X123.708 Y97.568 E6.94289
G1 X123.618 Y97.847 E6.96955
G1 X122.866 Y99.322 E7.1201
G1 X122.694 Y99.559 E7.14673
G1 X121.523 Y100.73 E7.29731
G1 X121.286 Y100.902 E7.32394
G1 X119.812 Y101.653 E7.47436
G1 X119.533 Y101.744 E7.50104
G1 X117.898 Y102.003 E7.65156
G1 X117.605 Y102.003 E7.6782
G1 X115.97 Y101.744 E7.82872
G1 X115.691 Y101.653 E7.8554
G1 X114.216 Y100.902 E8.0059
G1 X113.979 Y100.73 E8.03253
G1 X112.809 Y99.559 E8.18305
G1 X112.636 Y99.322 E8.20973
G1 X111.885 Y97.847 E8.36023
G1 X111.794 Y97.569 E8.38683
G1 X111.534 Y95.934 E8.53737
G1 X111.534 Y95.64 E8.5641
G1 X111.794 Y94.005 E8.71464
G1 X111.885 Y93.727 E8.74124
G1 X112.636 Y92.252 E8.89174
G1 X112.809 Y92.015 E8.91842
G1 X113.979 Y90.844 E9.06894
G1 X114.221 Y90.67 E9.09604
G1 X115.724 Y89.914 E9.24902
G1 X115.998 Y89.826 E9.27519
G1 X117.605 Y89.57 E9.42316
G1 X117.691 Y89.57 E9.43098
G1 X117.751 Y90.187 F7800
;TYPE:External perimeter
G1 F1800
G1 X117.8 Y90.187 E9.43544
G1 X119.435 Y90.447 E9.58598
G1 X119.528 Y90.477 E9.59487
G1 X121.002 Y91.229 E9.74534
G1 X121.081 Y91.286 E9.7542
G1 X122.252 Y92.457 E9.90478
G1 X122.309 Y92.536 E9.91364
G1 X123.061 Y94.01 E10.06411
G1 X123.091 Y94.103 E10.073
G1 X123.35 Y95.738 E10.22352
G1 X123.35 Y95.836 E10.23243
G1 X123.091 Y97.471 E10.38295
G1 X123.061 Y97.564 E10.39184
G1 X122.309 Y99.038 E10.54231
G1 X122.252 Y99.117 E10.55117
G1 X121.081 Y100.288 E10.70175
G1 X121.002 Y100.345 E10.71061
G1 X119.528 Y101.097 E10.86108
G1 X119.435 Y101.127 E10.86997
G1 X117.8 Y101.386 E11.02049
G1 X117.702 Y101.386 E11.0294
G1 X116.068 Y101.127 E11.17983
G1 X115.975 Y101.097 E11.18872
G1 X114.5 Y100.345 E11.33927
G1 X114.421 Y100.288 E11.34813
G1 X113.251 Y99.117 E11.49865
G1 X113.193 Y99.038 E11.50756
G1 X112.442 Y97.564 E11.65798
G1 X112.411 Y97.471 E11.66689
G1 X112.152 Y95.836 E11.81741
G1 X112.152 Y95.738 E11.82632
G1 X112.411 Y94.103 E11.97684
G1 X112.442 Y94.01 E11.98575
G1 X113.193 Y92.536 E12.13617
G1 X113.251 Y92.457 E12.14508
G1 X114.421 Y91.286 E12.2956
G1 X114.502 Y91.228 E12.30466
G1 X116.005 Y90.472 E12.45764
G1 X116.096 Y90.443 E12.46632
G1 X117.691 Y90.189 E12.61318
G1 X118.089 Y90.236 F7800
G1 E10.61318 F2400
G92 E0
G1 X115.162 Y103.758 F7800
G1 E2 F2400
;TYPE:Perimeter
G1 F1800
G1 X112.825 Y102.567 E2.23851
G1 X110.972 Y100.713 E2.47686
G1 X109.781 Y98.377 E2.71529
G1 X109.371 Y95.787 E2.95373
G1 X109.781 Y93.198 E3.19208
G1 X110.972 Y90.861 E3.43059
G1 X112.825 Y89.007 E3.66894
G1 X115.162 Y87.817 E3.90741
G1 X117.751 Y87.407 E4.14576
G1 X120.341 Y87.817 E4.3842
G1 X122.677 Y89.007 E4.62258
G1 X124.531 Y90.861 E4.86099
G1 X125.722 Y93.198 E5.0995
G1 X126.113 Y95.668 E5.32689
G1 X126.113 Y95.906 E5.34853
G1 X125.722 Y98.377 E5.57601
G1 X124.531 Y100.713 E5.81444
G1 X122.677 Y102.567 E6.05285
G1 X120.341 Y103.758 E6.29128
G1 X117.751 Y104.167 E6.52971
G1 X115.221 Y103.767 E6.76262
G1 X114.966 Y104.359 F7800
G1 F1800
G1 X112.453 Y103.079 E7.01906
G1 X110.46 Y101.085 E7.27541
G1 X109.179 Y98.572 E7.53189
G1 X108.738 Y95.787 E7.78828
G1 X109.179 Y93.002 E8.04467
G1 X110.46 Y90.489 E8.30115
G1 X112.453 Y88.496 E8.55744
G1 X114.966 Y87.215 E8.81392
G1 X117.751 Y86.774 E9.07031
G1 X120.536 Y87.215 E9.3267
G1 X123.049 Y88.496 E9.58318
G1 X125.043 Y90.489 E9.83953
G1 X126.323 Y93.002 E10.09597
G1 X126.764 Y95.787 E10.35236
G1 X126.73 Y96.003 E10.37224
G1 X126.323 Y98.572 E10.60875
G1 X125.043 Y101.085 E10.86519
G1 X123.049 Y103.079 E11.12161
G1 X120.536 Y104.359 E11.37805
G1 X117.751 Y104.8 E11.63444
G1 X115.025 Y104.369 E11.88539
G1 X114.771 Y104.961 F7800
;TYPE:External perimeter
G1 F1800
G1 X112.082 Y103.59 E12.15985
G1 X109.948 Y101.457 E12.4342
G1 X108.577 Y98.768 E12.70866
G1 X108.106 Y95.787 E12.98308
