; generated by PrusaSlicer 2.9.2 on 2025-09-08 at 18:40:02 UTC

; 

; external perimeters extrusion width = 0.45mm
; perimeters extrusion width = 0.45mm
; infill extrusion width = 0.45mm
; solid infill extrusion width = 0.45mm
; top infill extrusion width = 0.40mm
; first layer extrusion width = 0.50mm

M201 X9000 Y9000 Z500 E10000 ; sets maximum accelerations, mm/sec^2
M203 X500 Y500 Z12 E120 ; sets maximum feedrates, mm / sec
M204 S1500 T1500 ; sets acceleration (S) and retract acceleration (R), mm/sec^2
M205 X10.00 Y10.00 Z0.20 E2.50 ; sets the jerk limits, mm/sec
M205 S0 T0 ; sets the minimum extruding and travel feed rate, mm/sec
M190 S60 ; set bed temperature and wait for it to be reached
M104 S215 ; set temperature
;TYPE:Custom
G28
G1 Z50.00 F400
G92 E0
G1 F200 E3
G92 E0
M132 X Y Z A
M907 X100 Y100 Z50 A100
M109 S215 ; set temperature and wait for it to be reached
G21 ; set units to millimeters
G90 ; use absolute coordinates
M82 ; use absolute distances for extrusion
G92 E0
; Filament gcode
M107
;LAYER_CHANGE
;Z:0.25
;HEIGHT:0.25
G1 E-1 F2400
G92 E0
G1 Z.25 F7800
G1 X-26.683 Y12.798
G1 E1 F2400
;TYPE:Skirt/Brim
;WIDTH:0.5
G1 F1800
G1 X-35.434 Y-5.448 E1.9388
G1 X-36.012 Y-6.946 E2.01329
G1 X-36.323 Y-8.268 E2.0763
G1 X-36.538 Y-10.694 E2.18929
G1 X-36.307 Y-13.112 E2.30198
G1 X-35.89 Y-14.87 E2.3858
G1 X-34.919 Y-17.234 E2.50436
G1 X-34.15 Y-18.64 E2.57871
G1 X-32.567 Y-21.053 E2.71259
G1 X-16.333 Y-44.672 E4.04221
G1 X-14.923 Y-46.416 E4.14625
G1 X-14.092 Y-47.276 E4.20173
G1 X-12.251 Y-48.855 E4.31425
G1 X-10.119 Y-50.226 E4.43184
G1 X-8.756 Y-50.914 E4.50267
G1 X-6.39 Y-51.829 E4.62036
G1 X-5.102 Y-52.196 E4.68249
G1 X-2.341 Y-52.669 E4.81245
G1 X-.313 Y-52.795 E4.90672
G1 X2.447 Y-52.64 E5.03497
G1 X4.827 Y-52.244 E5.1469
G1 X6.24 Y-51.878 E5.21462
G1 X7.931 Y-51.266 E5.29805
G1 X10.025 Y-50.286 E5.40531
G1 X11.965 Y-49.055 E5.5119
G1 X13.376 Y-47.953 E5.59496
G1 X15.105 Y-46.223 E5.70843
G1 X15.922 Y-45.194 E5.76939
G1 X34.043 Y-19.19 E7.23981
G1 X34.737 Y-17.889 E7.30822
G1 X36 Y-14.503 E7.47588
G1 X36.388 Y-12.74 E7.55963
G1 X36.56 Y-10.603 E7.65909
G1 X36.463 Y-9.085 E7.72966
G1 X36.258 Y-7.954 E7.78299
G1 X35.875 Y-6.557 E7.85019
G1 X35.342 Y-5.26 E7.91524
G1 X11.063 Y45.439 E10.52309
G1 X10.051 Y47.095 E10.61313
G1 X9.254 Y48.138 E10.67403
G1 X8.134 Y49.312 E10.7493
G1 X6.654 Y50.51 E10.83764
G1 X5.614 Y51.126 E10.89372
G1 X4.034 Y51.854 E10.97443
G1 X2.789 Y52.263 E11.03523
G1 X1.941 Y52.446 E11.07548
G1 X.638 Y52.585 E11.13627
G1 X-1.146 Y52.541 E11.21906
G1 X-2.538 Y52.315 E11.28448
G1 X-4.346 Y51.737 E11.37254
G1 X-5.968 Y50.935 E11.45648
G1 X-7.423 Y49.958 E11.53779
G1 X-8.273 Y49.198 E11.59069
G1 X-9.557 Y47.771 E11.67975
G1 X-10.78 Y45.952 E11.78144
G1 X-26.657 Y12.852 E13.48456
G1 E12.48456 F2400
G92 E0
G1 X-16.209 Y4.317 F7800
G1 E1 F2400
G1 F1800
G1 X-16.571 Y3.704 E1.03303
G1 X-16.819 Y2.974 E1.0688
G1 X-16.957 Y1.66 E1.1301
G1 X-16.777 Y.255 E1.19581
G1 X-16.313 Y-1.145 E1.26423
G1 X-15.995 Y-1.798 E1.29793
G1 X-16.998 Y-1.944 E1.34495
G1 X-18.244 Y-2.333 E1.40551
G1 X-23.157 Y-4.334 E1.65162
G1 X-25.416 Y-5.065 E1.76177
G1 X-26.575 Y-5.588 E1.82076
G1 X-27.177 Y-5.959 E1.85357
G1 X-28.039 Y-6.642 E1.90459
G1 X-28.658 Y-7.377 E1.94917
G1 X-29.116 Y-8.169 E1.99161
G1 X-29.468 Y-9.099 E2.03774
G1 X-29.657 Y-10.894 E2.12148
G1 X-29.516 Y-12.031 E2.17463
G1 X-29.239 Y-13.075 E2.22474
G1 X-28.526 Y-14.647 E2.30482
G1 X-27.114 Y-16.829 E2.4254
G1 X-25.902 Y-18.223 E2.5111
G1 X-24.228 Y-19.921 E2.62172
G1 X-22.791 Y-21.17 E2.71005
G1 X-20.397 Y-22.771 E2.84366
G1 X-17.241 Y-24.339 E3.00715
G1 X-16.042 Y-24.815 E3.067
G1 X-13.963 Y-25.403 E3.16723
G1 X-13.786 Y-29.106 E3.33922
G1 X-13.467 Y-32.68 E3.50569
G1 X-13.163 Y-34.509 E3.59171
G1 X-12.576 Y-36.869 E3.70453
G1 X-11.978 Y-38.469 E3.78377
G1 X-11.467 Y-39.516 E3.83782
G1 X-10.634 Y-40.821 E3.90964
G1 X-9.639 Y-42.012 E3.98164
G1 X-8.191 Y-43.303 E4.07164
G1 X-6.513 Y-44.372 E4.16394
G1 X-4.288 Y-45.279 E4.27541
G1 X-3.409 Y-45.528 E4.31779
G1 X-.889 Y-45.915 E4.43607
G1 X1.156 Y-45.846 E4.531
G1 X2.122 Y-45.748 E4.57605
G1 X4.101 Y-45.342 E4.66977
G1 X5.12 Y-44.991 E4.71977
G1 X6.471 Y-44.384 E4.78848
G1 X8.087 Y-43.377 E4.87682
G1 X8.972 Y-42.665 E4.92952
G1 X10.233 Y-41.327 E5.01482
G1 X11.475 Y-39.486 E5.11785
G1 X11.807 Y-38.86 E5.15072
G1 X12.335 Y-37.585 E5.21474
G1 X13.037 Y-35.165 E5.33164
G1 X13.355 Y-33.427 E5.41361
G1 X13.719 Y-30.221 E5.5633
G1 X13.96 Y-25.386 E5.78789
G1 X16.107 Y-24.76 E5.89164
G1 X18.553 Y-23.716 E6.01502
G1 X21.175 Y-22.286 E6.15358
G1 X22.643 Y-21.29 E6.23588
G1 X24.077 Y-20.077 E6.32302
G1 X26.775 Y-17.274 E6.50351
G1 X28.19 Y-15.26 E6.6177
G1 X28.744 Y-14.283 E6.66981
G1 X29.33 Y-12.804 E6.74361
G1 X29.577 Y-11.793 E6.79189
G1 X29.683 Y-10.593 E6.84778
G1 X29.458 Y-9.07 E6.9192
G1 X28.839 Y-7.7 E6.98894
G1 X28.053 Y-6.677 E7.04879
G1 X26.634 Y-5.617 E7.13096
G1 X24.653 Y-4.806 E7.23027
G1 X22.929 Y-4.242 E7.31442
G1 X18.997 Y-2.611 E7.51191
G1 X16.787 Y-1.9 E7.61961
G1 X16.031 Y-1.762 E7.65526
G1 X16.623 Y-.27 E7.72973
G1 X16.894 Y.862 E7.78373
G1 X16.958 Y2.135 E7.84286
G1 X16.838 Y2.855 E7.87672
G1 X16.567 Y3.668 E7.91648
G1 X16.182 Y4.347 E7.95269
G1 X15.391 Y5.221 E8.00738
G1 X14.815 Y5.663 E8.04106
G1 X13.461 Y6.222 E8.10902
G1 X11.902 Y6.44 E8.18205
G1 X11.076 Y9.938 E8.34879
G1 X9.853 Y16.067 E8.63874
G1 X8.568 Y21.729 E8.9081
G1 X7.629 Y24.704 E9.05283
G1 X6.907 Y26.53 E9.14392
G1 X7.457 Y29.625 E9.28975
G1 X7.611 Y31.269 E9.36635
G1 X7.652 Y32.903 E9.44218
G1 X7.52 Y34.854 E9.5329
G1 X7.243 Y36.458 E9.60842
G1 X6.729 Y38.122 E9.68922
G1 X5.186 Y41.846 E9.87623
G1 X4.353 Y43.246 E9.95181
G1 X3.939 Y43.77 E9.98279
G1 X3.213 Y44.498 E10.03049
G1 X2.407 Y45.044 E10.07565
G1 X1.035 Y45.611 E10.14452
G1 X-.302 Y45.713 E10.20673
G1 X-1.646 Y45.41 E10.27065
G1 X-2.891 Y44.758 E10.33585
G1 X-4.248 Y43.395 E10.42508
G1 X-4.946 Y42.297 E10.48544
G1 X-5.749 Y40.596 E10.57271
G1 X-6.999 Y37.298 E10.73633
G1 X-7.427 Y35.524 E10.82099
G1 X-7.615 Y33.761 E10.90324
G1 X-7.605 Y31.174 E11.02326
G1 X-7.473 Y29.745 E11.08984
G1 X-6.918 Y26.558 E11.23992
G1 X-8.014 Y23.608 E11.38592
G1 X-8.714 Y21.158 E11.50413
G1 X-9.181 Y19.262 E11.59472
G1 X-10.796 Y11.203 E11.97603
G1 X-11.875 Y6.447 E12.20228
G1 X-13.264 Y6.274 E12.26722
G1 X-13.983 Y6.053 E12.30212
G1 X-14.838 Y5.64 E12.34617
G1 X-15.594 Y5.052 E12.3906
G1 X-16.171 Y4.363 E12.43229
G1 X-15.829 Y4.077 F7800
G1 F1800
G1 X-15.855 Y4.046 E12.43417
G1 X-16.174 Y3.5 E12.46351
G1 X-16.387 Y2.857 E12.49493
G1 X-16.51 Y1.642 E12.55159
G1 X-16.337 Y.333 E12.61285
G1 X-15.891 Y-.997 E12.67793
G1 X-15.318 Y-2.154 E12.73783
G1 X-16.882 Y-2.376 E12.81112
G1 X-18.092 Y-2.753 E12.86992
G1 X-23.006 Y-4.754 E13.11607
G1 X-25.242 Y-5.476 E13.22508
G1 X-26.378 Y-5.989 E13.28291
G1 X-26.932 Y-6.331 E13.31311
G1 X-27.712 Y-6.947 E13.35922
G1 X-28.304 Y-7.649 E13.40182
G1 X-28.72 Y-8.376 E13.44068
G1 X-29.028 Y-9.177 E13.48049
G1 X-29.211 Y-10.865 E13.55926
G1 X-29.075 Y-11.96 E13.61045
G1 X-28.813 Y-12.942 E13.6576
G1 X-28.138 Y-14.424 E13.73315
G1 X-26.779 Y-16.534 E13.84959
G1 X-25.573 Y-17.921 E13.93486
G1 X-23.918 Y-19.6 E14.04423
G1 X-22.52 Y-20.815 E14.13016
G1 X-20.181 Y-22.38 E14.26072
G1 X-17.07 Y-23.927 E14.42191
G1 X-15.892 Y-24.394 E14.4807
G1 X-13.533 Y-25.051 E14.59431
G1 X-13.341 Y-29.071 E14.78102
G1 X-13.023 Y-32.632 E14.94688
G1 X-12.728 Y-34.409 E15.03045
G1 X-12.146 Y-36.749 E15.14232
G1 X-11.563 Y-38.302 E15.21928
G1 X-11.084 Y-39.287 E15.27009
G1 X-10.282 Y-40.546 E15.33934
G1 X-9.307 Y-41.713 E15.40989
G1 X-7.908 Y-42.957 E15.49674
G1 X-6.291 Y-43.984 E15.58561
G1 X-4.132 Y-44.861 E15.69372
G1 X-3.322 Y-45.09 E15.73277
G1 X-.854 Y-45.469 E15.84861
G1 X2.05 Y-45.307 E15.98354
G1 X3.478 Y-45.047 E16.05088
G1 X4.947 Y-44.58 E16.12239
G1 X6.992 Y-43.576 E16.22808
G1 X8.683 Y-42.325 E16.32566
G1 X9.448 Y-41.565 E16.37569
G1 X9.883 Y-41.048 E16.40704
G1 X11.098 Y-39.246 E16.50787
G1 X11.399 Y-38.679 E16.53765
G1 X11.913 Y-37.438 E16.59997
G1 X12.603 Y-35.062 E16.71475
G1 X12.912 Y-33.369 E16.79459
G1 X13.274 Y-30.184 E16.9433
G1 X13.527 Y-25.077 E17.18052
G1 X15.949 Y-24.343 E17.29793
G1 X18.343 Y-23.322 E17.41867
G1 X20.93 Y-21.913 E17.55533
G1 X22.369 Y-20.937 E17.636
G1 X23.772 Y-19.75 E17.72126
G1 X26.423 Y-16.998 E17.89853
G1 X27.801 Y-15.04 E18.00961
G1 X28.33 Y-14.112 E18.05917
G1 X28.909 Y-12.654 E18.13195
G1 X29.134 Y-11.737 E18.17575
G1 X29.236 Y-10.58 E18.22963
G1 X29.037 Y-9.223 E18.29326
G1 X28.472 Y-7.956 E18.35762
G1 X27.73 Y-6.986 E18.41428
G1 X26.391 Y-5.993 E18.49162
G1 X24.495 Y-5.223 E18.58656
G1 X22.771 Y-4.66 E18.6707
G1 X18.851 Y-3.033 E18.8676
G1 X16.665 Y-2.33 E18.97413
G1 X15.293 Y-2.213 E19.03801
G1 X16.202 Y-.12 E19.14387
G1 X16.451 Y.922 E19.19357
G1 X16.512 Y2.113 E19.2489
G1 X16.409 Y2.732 E19.27801
G1 X16.166 Y3.47 E19.31406
G1 X15.833 Y4.067 E19.34577
G1 X15.075 Y4.906 E19.39823
G1 X14.569 Y5.29 E19.4277
G1 X13.364 Y5.786 E19.48815
G1 X11.54 Y6.03 E19.57352
G1 X10.64 Y9.839 E19.7551
G1 X9.416 Y15.972 E20.04524
G1 X8.135 Y21.621 E20.31397
G1 X7.205 Y24.562 E20.45707
G1 X6.443 Y26.491 E20.55329
G1 X7.013 Y29.675 E20.70335
G1 X7.165 Y31.288 E20.77851
G1 X7.205 Y32.888 E20.85276
G1 X7.076 Y34.805 E20.9419
G1 X6.806 Y36.368 E21.01549
G1 X6.31 Y37.969 E21.09325
G1 X4.781 Y41.657 E21.27847
G1 X3.977 Y43.005 E21.35129
G1 X3.613 Y43.465 E21.3785
G1 X2.943 Y44.142 E21.42269
G1 X2.213 Y44.642 E21.46374
G1 X.938 Y45.174 E21.52783
G1 X-.281 Y45.266 E21.58454
G1 X-1.516 Y44.982 E21.64333
G1 X-2.651 Y44.38 E21.70293
G1 X-3.913 Y43.1 E21.78632
G1 X-4.549 Y42.094 E21.84154
G1 X-5.343 Y40.412 E21.92783
G1 X-6.573 Y37.162 E22.08904
G1 X-6.99 Y35.434 E22.17151
G1 X-7.17 Y33.726 E22.25119
G1 X-7.158 Y31.186 E22.36903
G1 X-6.794 Y28.229 E22.50725
G1 X-6.457 Y26.531 E22.58756
G1 X-7.593 Y23.458 E22.73955
G1 X-8.282 Y21.047 E22.85588
G1 X-9.445 Y15.86 E23.10249
G1 X-10.359 Y11.112 E23.32681
G1 X-11.509 Y6.041 E23.56804
G1 X-13.153 Y5.842 E23.64487
G1 X-13.807 Y5.642 E23.6766
G1 X-14.585 Y5.271 E23.71659
G1 X-15.267 Y4.747 E23.75649
G1 X-15.79 Y4.123 E23.79426
G1 X-15.448 Y3.836 F7800
G1 F1800
G1 X-15.5 Y3.774 E23.79801
G1 X-15.775 Y3.298 E23.82351
G1 X-15.955 Y2.743 E23.85058
G1 X-16.064 Y1.625 E23.90269
G1 X-15.898 Y.412 E23.95949
G1 X-15.482 Y-.817 E24.01968
G1 X-14.893 Y-2.008 E24.08132
G1 X-14.394 Y-2.665 E24.11959
G1 X-15.567 Y-2.64 E24.17402
G1 X-16.767 Y-2.807 E24.23023
G1 X-17.939 Y-3.172 E24.28718
G1 X-22.855 Y-5.175 E24.53345
G1 X-25.068 Y-5.887 E24.6413
G1 X-26.181 Y-6.389 E24.69794
G1 X-27.39 Y-7.258 E24.76701
G1 X-27.949 Y-7.92 E24.80721
G1 X-28.324 Y-8.583 E24.84255
G1 X-28.588 Y-9.257 E24.87613
G1 X-28.764 Y-10.837 E24.94988
G1 X-28.634 Y-11.89 E24.9991
G1 X-28.387 Y-12.808 E25.0432
G1 X-27.751 Y-14.202 E25.11428
G1 X-26.443 Y-16.239 E25.22659
G1 X-25.244 Y-17.619 E25.3114
G1 X-23.622 Y-19.265 E25.41861
G1 X-22.249 Y-20.46 E25.50305
G1 X-19.965 Y-21.989 E25.63056
G1 X-18 Y-22.999 E25.73306
G1 X-15.77 Y-23.965 E25.84581
G1 X-13.12 Y-24.694 E25.97332
G1 X-12.896 Y-29.044 E26.1754
G1 X-12.579 Y-32.584 E26.34029
G1 X-12.293 Y-34.31 E26.42146
G1 X-11.716 Y-36.628 E26.53228
G1 X-11.149 Y-38.136 E26.60702
G1 X-10.7 Y-39.058 E26.6546
G1 X-9.913 Y-40.294 E26.72258
G1 X-8.975 Y-41.413 E26.79032
G1 X-7.626 Y-42.611 E26.87402
G1 X-6.07 Y-43.596 E26.95946
G1 X-3.976 Y-44.443 E27.06425
G1 X-3.236 Y-44.652 E27.09992
G1 X-.819 Y-45.024 E27.21337
G1 X1.109 Y-44.954 E27.30287
G1 X1.979 Y-44.866 E27.34344
G1 X3.855 Y-44.484 E27.43226
G1 X4.773 Y-44.169 E27.47729
G1 X6.086 Y-43.579 E27.54407
G1 X7.572 Y-42.647 E27.62545
G1 X8.393 Y-41.985 E27.67438
G1 X9.534 Y-40.77 E27.75171
G1 X10.991 Y-38.499 E27.87689
G1 X11.492 Y-37.291 E27.93756
G1 X12.168 Y-34.959 E28.0502
G1 X12.47 Y-33.311 E28.12793
G1 X12.829 Y-30.147 E28.27566
G1 X13.097 Y-24.691 E28.52908
G1 X15.792 Y-23.925 E28.65906
G1 X18.134 Y-22.928 E28.77715
G1 X20.686 Y-21.539 E28.91194
G1 X22.095 Y-20.584 E28.99091
G1 X23.468 Y-19.422 E29.07436
G1 X26.07 Y-16.723 E29.24829
G1 X27.414 Y-14.818 E29.35645
G1 X27.918 Y-13.94 E29.40342
G1 X28.48 Y-12.531 E29.4738
G1 X28.691 Y-11.68 E29.51448
G1 X28.789 Y-10.567 E29.56631
G1 X28.601 Y-9.321 E29.62477
G1 X28.106 Y-8.212 E29.68111
G1 X27.407 Y-7.296 E29.73457
G1 X26.15 Y-6.369 E29.80703
G1 X24.338 Y-5.641 E29.89762
G1 X22.613 Y-5.078 E29.9818
G1 X18.708 Y-3.456 E30.17797
G1 X16.544 Y-2.759 E30.28344
G1 X15.021 Y-2.617 E30.3544
G1 X14.387 Y-2.667 E30.3839
G1 X14.902 Y-1.996 E30.42314
G1 X15.781 Y.03 E30.5256
G1 X16.072 Y1.593 E30.59936
G1 X15.979 Y2.611 E30.64678
G1 X15.764 Y3.275 E30.67916
G1 X15.484 Y3.787 E30.70623
G1 X14.758 Y4.59 E30.75645
G1 X14.325 Y4.915 E30.78157
G1 X13.267 Y5.349 E30.83462
G1 X11.171 Y5.651 E30.93286
G1 X10.205 Y9.741 E31.12783
G1 X8.98 Y15.877 E31.41811
G1 X7.701 Y21.513 E31.68623
G1 X6.782 Y24.42 E31.82767
G1 X5.996 Y26.406 E31.92676
G1 X6.57 Y29.725 E32.08302
G1 X6.72 Y31.322 E32.15744
G1 X6.703 Y33.969 E32.28024
G1 X6.369 Y36.277 E32.38843
G1 X5.403 Y39.08 E32.52597
G1 X4.377 Y41.467 E32.64651
G1 X3.602 Y42.763 E32.71657
G1 X2.671 Y43.788 E32.78081
G1 X2.017 Y44.24 E32.81769
G1 X.84 Y44.738 E32.87698
G1 X-.26 Y44.819 E32.92815
G1 X-1.333 Y44.573 E32.97922
G1 X-2.411 Y44.002 E33.03581
G1 X-3.548 Y42.841 E33.1112
G1 X-4.151 Y41.891 E33.1634
G1 X-4.937 Y40.227 E33.24878
G1 X-6.148 Y37.027 E33.40751
G1 X-6.552 Y35.344 E33.48781
G1 X-6.725 Y33.692 E33.56487
G1 X-6.712 Y31.199 E33.68053
G1 X-6.355 Y28.31 E33.81558
G1 X-5.997 Y26.504 E33.901
G1 X-7.173 Y23.308 E34.05899
G1 X-7.85 Y20.936 E34.17343
G1 X-9.007 Y15.773 E34.4189
G1 X-9.922 Y11.02 E34.64345
G1 X-11.103 Y5.815 E34.89106
G1 X-11.156 Y5.633 E34.89985
G1 X-13.044 Y5.409 E34.98805
G1 X-13.633 Y5.231 E35.0166
G1 X-14.335 Y4.9 E35.05261
G1 X-14.942 Y4.44 E35.08794
G1 X-15.409 Y3.882 E35.1217
G1 X-15.067 Y3.595 F7800
G1 F1800
G1 X-15.144 Y3.503 E35.12727
G1 X-15.375 Y3.099 E35.14886
G1 X-15.523 Y2.632 E35.17159
G1 X-15.618 Y1.659 E35.21694
G1 X-15.466 Y.526 E35.26997
G1 X-15.072 Y-.639 E35.32702
G1 X-14.503 Y-1.789 E35.38654
G1 X-13.306 Y-3.33 E35.47706
G1 X-14.454 Y-3.112 E35.53127
G1 X-15.524 Y-3.085 E35.58093
G1 X-16.687 Y-3.247 E35.63541
G1 X-17.799 Y-3.596 E35.68948
G1 X-22.704 Y-5.596 E35.93523
G1 X-24.913 Y-6.306 E36.04287
G1 X-25.957 Y-6.776 E36.09599
G1 X-27.104 Y-7.601 E36.16154
G1 X-27.571 Y-8.159 E36.1953
G1 X-27.915 Y-8.761 E36.22747
G1 X-28.161 Y-9.392 E36.25889
G1 X-28.318 Y-10.808 E36.32498
G1 X-28.193 Y-11.819 E36.37224
G1 X-27.961 Y-12.673 E36.4133
G1 X-27.364 Y-13.98 E36.47996
G1 X-26.108 Y-15.944 E36.58811
G1 X-24.915 Y-17.317 E36.67249
G1 X-23.326 Y-18.931 E36.77757
G1 X-21.978 Y-20.105 E36.8605
G1 X-19.748 Y-21.599 E36.98503
G1 X-16.727 Y-23.103 E37.14159
G1 X-15.62 Y-23.544 E37.19687
G1 X-14.451 Y-23.901 E37.25358
G1 X-12.703 Y-24.327 E37.33705
G1 X-12.397 Y-29.745 E37.58881
G1 X-12.136 Y-32.534 E37.71876
G1 X-11.857 Y-34.211 E37.79763
G1 X-11.286 Y-36.508 E37.90744
G1 X-10.735 Y-37.969 E37.97988
G1 X-10.317 Y-38.83 E38.02428
G1 X-9.562 Y-40.018 E38.08958
G1 X-8.644 Y-41.114 E38.15591
G1 X-7.344 Y-42.265 E38.23646
G1 X-5.849 Y-43.208 E38.31846
G1 X-3.82 Y-44.024 E38.41992
G1 X-3.15 Y-44.214 E38.45223
G1 X-.785 Y-44.579 E38.56325
G1 X1.908 Y-44.426 E38.68839
G1 X3.299 Y-44.172 E38.75399
G1 X4.6 Y-43.757 E38.81734
G1 X6.508 Y-42.826 E38.91583
G1 X8.104 Y-41.645 E39.00794
G1 X8.804 Y-40.947 E39.0538
G1 X9.184 Y-40.493 E39.08127
G1 X10.583 Y-38.318 E39.20125
G1 X11.07 Y-37.144 E39.26022
G1 X11.734 Y-34.856 E39.37075
G1 X12.027 Y-33.253 E39.44635
G1 X12.383 Y-30.111 E39.59305
G1 X12.678 Y-24.324 E39.86187
G1 X15.648 Y-23.502 E40.00484
G1 X17.931 Y-22.53 E40.11995
G1 X20.441 Y-21.166 E40.25248
G1 X21.822 Y-20.231 E40.32985
G1 X23.165 Y-19.094 E40.41149
G1 X25.719 Y-16.446 E40.58217
G1 X27.026 Y-14.596 E40.68725
G1 X27.506 Y-13.766 E40.73173
G1 X28.059 Y-12.38 E40.80096
G1 X28.247 Y-11.624 E40.8371
G1 X28.342 Y-10.554 E40.88694
G1 X28.18 Y-9.472 E40.9377
G1 X27.739 Y-8.468 E40.98857
G1 X27.085 Y-7.605 E41.0388
G1 X25.91 Y-6.747 E41.1063
G1 X24.182 Y-6.06 E41.19257
G1 X22.455 Y-5.496 E41.27685
G1 X18.563 Y-3.878 E41.47239
G1 X16.448 Y-3.195 E41.5755
