; generated by PrusaSlicer 2.9.2 on 2025-09-24 at 20:49:46 UTC

; 

; external perimeters extrusion width = 0.45mm
; perimeters extrusion width = 0.45mm
; infill extrusion width = 0.45mm
; solid infill extrusion width = 0.45mm
; top infill extrusion width = 0.40mm
; support material extrusion width = 0.40mm
; first layer extrusion width = 0.50mm

; external perimeters extrusion width = 0.45mm
; perimeters extrusion width = 0.45mm
; infill extrusion width = 0.45mm
; solid infill extrusion width = 0.45mm
; top infill extrusion width = 0.40mm
; support material extrusion width = 0.40mm
; first layer extrusion width = 0.50mm

; external perimeters extrusion width = 0.45mm
; perimeters extrusion width = 0.45mm
; infill extrusion width = 0.45mm
; solid infill extrusion width = 0.45mm
; top infill extrusion width = 0.40mm
; support material extrusion width = 0.40mm
; first layer extrusion width = 0.50mm

; external perimeters extrusion width = 0.45mm
; perimeters extrusion width = 0.45mm
; infill extrusion width = 0.45mm
; solid infill extrusion width = 0.45mm
; top infill extrusion width = 0.40mm
; support material extrusion width = 0.40mm
; first layer extrusion width = 0.50mm

M201 X9000 Y9000 Z500 E10000 ; sets maximum accelerations, mm/sec^2
M203 X500 Y500 Z12 E120 ; sets maximum feedrates, mm / sec
M204 S1500 T1500 ; sets acceleration (S) and retract acceleration (R), mm/sec^2
M205 X10.00 Y10.00 Z0.20 E2.50 ; sets the jerk limits, mm/sec
M205 S0 T0 ; sets the minimum extruding and travel feed rate, mm/sec
M190 S60 ; set bed temperature and wait for it to be reached
M104 S215 ; set temperature
;TYPE:Custom
G28
G1 Z50.00 F400
G92 E0
G1 F200 E3
G92 E0
M132 X Y Z A
M907 X100 Y100 Z50 A100
M109 S215 ; set temperature and wait for it to be reached
G21 ; set units to millimeters
G90 ; use absolute coordinates
M82 ; use absolute distances for extrusion
G92 E0
; Filament gcode
M107
;LAYER_CHANGE
;Z:0.25
;HEIGHT:0.25
G1 E-1 F2400
G92 E0
G1 Z.25 F7800
G1 X25.211 Y.022
G1 E1 F2400
;TYPE:Skirt/Brim
;WIDTH:0.5
G1 F1800
G1 X25.201 Y11.795 E1.54618
G1 X24.943 Y13.807 E1.64029
G1 X24.583 Y15.221 E1.70798
G1 X24.028 Y16.707 E1.78157
G1 X23.084 Y18.503 E1.8757
G1 X21.894 Y20.146 E1.96982
G1 X20.899 Y21.213 E2.0375
G1 X19.701 Y22.252 E2.11107
G1 X18.503 Y23.084 E2.17874
G1 X17.111 Y23.844 E2.25232
G1 X15.763 Y24.402 E2.32
G1 X14.242 Y24.849 E2.39355
G1 X12.806 Y25.108 E2.46124
G1 X11.002 Y25.225 E2.54511
G1 X-11.795 Y25.201 E3.60272
G1 X-13.807 Y24.943 E3.69683
G1 X-15.221 Y24.583 E3.76452
G1 X-16.707 Y24.028 E3.83811
G1 X-18.503 Y23.084 E3.93224
G1 X-19.701 Y22.252 E3.99991
G1 X-20.899 Y21.213 E4.07348
G1 X-21.894 Y20.146 E4.14116
G1 X-22.844 Y18.876 E4.21474
G1 X-23.844 Y17.111 E4.30885
G1 X-24.402 Y15.763 E4.37653
G1 X-24.849 Y14.241 E4.45012
G1 X-25.108 Y12.806 E4.51777
G1 X-25.225 Y11.002 E4.60164
G1 X-25.201 Y-11.795 E5.65925
G1 X-24.943 Y-13.807 E5.75336
G1 X-24.583 Y-15.221 E5.82105
G1 X-24.028 Y-16.707 E5.89464
G1 X-23.084 Y-18.503 E5.98877
G1 X-22.252 Y-19.701 E6.05644
G1 X-21.213 Y-20.899 E6.13001
G1 X-20.146 Y-21.894 E6.19769
G1 X-18.876 Y-22.844 E6.27127
G1 X-17.622 Y-23.588 E6.33892
G1 X-16.179 Y-24.247 E6.41252
G1 X-15.221 Y-24.583 E6.45962
G1 X-13.807 Y-24.943 E6.52731
G1 X-12.238 Y-25.169 E6.60085
G1 X-11.002 Y-25.225 E6.65825
G1 X11.224 Y-25.221 E7.68937
G1 X12.238 Y-25.169 E7.73647
G1 X13.807 Y-24.943 E7.81001
G1 X15.763 Y-24.402 E7.90416
G1 X17.621 Y-23.588 E7.99827
G1 X18.503 Y-23.084 E8.0454
G1 X19.701 Y-22.252 E8.11307
G1 X21.213 Y-20.899 E8.2072
G1 X21.894 Y-20.146 E8.2543
G1 X22.844 Y-18.876 E8.32788
G1 X23.844 Y-17.111 E8.42199
G1 X24.247 Y-16.179 E8.4691
G1 X24.708 Y-14.795 E8.53678
G1 X25.108 Y-12.806 E8.6309
G1 X25.221 Y-11.224 E8.70448
G1 X25.211 Y-.038 E9.22343
G1 E8.22343 F2400
G92 E0
G92 E0
G1 X7.404 Y9.857 F7800
G1 E1 F2400
;TYPE:Perimeter
;WIDTH:0.499999
G1 F1800
G1 X7.569 Y9.439 E1.02085
G1 X7.81 Y8.955 E1.04593
G1 X8.184 Y8.486 E1.07376
G1 X8.466 Y8.19 E1.09273
G1 X8.991 Y7.793 E1.12327
G1 X9.394 Y7.586 E1.14429
G1 X9.917 Y7.368 E1.17058
G1 X10.483 Y7.264 E1.19728
G1 X10.971 Y7.212 E1.22005
G1 X11.488 Y7.246 E1.24409
G1 X12.13 Y7.387 E1.27458
G1 X12.524 Y7.545 E1.29427
G1 X12.978 Y7.772 E1.31782
G1 X13.479 Y8.156 E1.3471
G1 X13.849 Y8.498 E1.37047
G1 X14.219 Y9.017 E1.40004
G1 X14.407 Y9.348 E1.4177
G1 X14.638 Y9.946 E1.44744
G1 X14.733 Y10.435 E1.47055
G1 X14.794 Y10.962 E1.49516
G1 X14.733 Y11.569 E1.52346
G1 X14.638 Y12.058 E1.54657
G1 X14.401 Y12.671 E1.57706
G1 X14.219 Y12.987 E1.59398
G1 X13.891 Y13.45 E1.6203
G1 X13.47 Y13.855 E1.6474
G1 X13.07 Y14.181 E1.67134
G1 X12.524 Y14.458 E1.69974
G1 X12.13 Y14.617 E1.71945
G1 X11.488 Y14.757 E1.74993
G1 X11.049 Y14.778 E1.77032
G1 X10.472 Y14.757 E1.79711
G1 X9.927 Y14.618 E1.8232
G1 X9.401 Y14.434 E1.84905
G1 X8.838 Y14.109 E1.87921
G1 X8.315 Y13.65 E1.91149
G1 X7.968 Y13.268 E1.93543
G1 X7.621 Y12.708 E1.96599
G1 X7.367 Y12.021 E1.99997
G1 X7.257 Y11.562 E2.02187
G1 X7.216 Y10.906 E2.05236
G1 X7.253 Y10.528 E2.06998
G1 X7.354 Y9.985 E2.0956
G1 X7.382 Y9.913 E2.09918
G1 X7.823 Y9.991 F7800
G1 F1800
G1 X7.843 Y9.911 E2.10301
G1 X8.177 Y9.21 E2.13903
G1 X8.532 Y8.766 E2.1654
G1 X8.735 Y8.546 E2.17929
G1 X9.26 Y8.149 E2.20983
G1 X9.918 Y7.849 E2.24338
G1 X10.177 Y7.764 E2.25603
G1 X10.808 Y7.666 E2.28565
G1 X11.32 Y7.671 E2.3094
G1 X12.035 Y7.823 E2.34331
G1 X12.664 Y8.114 E2.37546
G1 X12.916 Y8.262 E2.38902
G1 X13.416 Y8.69 E2.41955
G1 X13.854 Y9.275 E2.45345
G1 X13.991 Y9.509 E2.46603
G1 X14.222 Y10.107 E2.49577
G1 X14.337 Y10.866 E2.53138
G1 X14.337 Y11.137 E2.54395
G1 X14.262 Y11.737 E2.572
G1 X13.991 Y12.495 E2.60935
G1 X13.635 Y13.039 E2.63951
G1 X13.416 Y13.314 E2.65582
G1 X12.912 Y13.745 E2.68659
G1 X12.325 Y14.059 E2.71747
G1 X12.035 Y14.181 E2.73207
G1 X11.392 Y14.321 E2.7626
G1 X10.684 Y14.32 E2.79545
G1 X10.408 Y14.291 E2.80832
G1 X9.775 Y14.111 E2.83885
G1 X9.118 Y13.756 E2.87349
G1 X8.898 Y13.593 E2.88619
G1 X8.451 Y13.162 E2.915
G1 X8.015 Y12.496 E2.95193
G1 X7.793 Y11.885 E2.98209
G1 X7.702 Y11.535 E2.99887
G1 X7.662 Y10.878 E3.02941
G1 X7.761 Y10.237 E3.0595
G1 X7.808 Y10.049 E3.06849
G1 X8.242 Y10.124 F7800
;TYPE:External perimeter
G1 F1800
G1 X8.248 Y10.097 E3.06977
G1 X8.543 Y9.465 E3.10213
G1 X9.004 Y8.902 E3.13589
G1 X9.529 Y8.506 E3.1664
G1 X10.092 Y8.26 E3.1949
G1 X10.621 Y8.147 E3.22
G1 X10.946 Y8.105 E3.2352
G1 X11.297 Y8.118 E3.25149
G1 X11.943 Y8.26 E3.28218
G1 X12.626 Y8.601 E3.3176
G1 X13.125 Y9.029 E3.3481
G1 X13.49 Y9.532 E3.37693
G1 X13.711 Y10.024 E3.40195
G1 X13.819 Y10.322 E3.41665
G1 X13.9 Y10.974 E3.44713
G1 X13.819 Y11.682 E3.48019
G1 X13.574 Y12.334 E3.5125
G1 X13.125 Y12.975 E3.54881
G1 X12.624 Y13.404 E3.57941
G1 X11.939 Y13.745 E3.61491
G1 X11.297 Y13.885 E3.64539
G1 X10.53 Y13.862 E3.68099
G1 X9.897 Y13.682 E3.71152
G1 X9.341 Y13.369 E3.74112
G1 X8.727 Y12.798 E3.78002
G1 X8.38 Y12.238 E3.81058
G1 X8.148 Y11.508 E3.84612
G1 X8.107 Y10.851 E3.87666
G1 X8.2 Y10.319 E3.90172
G1 X8.23 Y10.183 E3.90818
G1 X8.383 Y9.813 F7800
G1 E2.90818 F2400
G92 E0
G1 X10.975 Y4.147 F7800
G1 E1 F2400
;TYPE:Perimeter
G1 F1800
G1 X11.015 Y4.146 E1.00186
G1 X11.545 Y4.169 E1.02647
G1 X12.089 Y4.235 E1.05189
G1 X12.839 Y4.399 E1.08751
G1 X13.346 Y4.56 E1.11219
G1 X13.85 Y4.765 E1.13743
G1 X14.335 Y5.012 E1.16268
G1 X14.862 Y5.34 E1.19148
G1 X15.449 Y5.786 E1.22568
G1 X15.85 Y6.153 E1.2509
G1 X16.192 Y6.522 E1.27424
G1 X16.522 Y6.938 E1.29887
G1 X16.992 Y7.669 E1.33919
G1 X17.239 Y8.154 E1.36444
G1 X17.444 Y8.658 E1.38968
G1 X17.644 Y9.316 E1.42159
G1 X17.779 Y9.972 E1.45266
G1 X17.841 Y10.513 E1.47792
G1 X17.857 Y11.057 E1.50317
G1 X17.835 Y11.546 E1.52588
G1 X17.712 Y12.405 E1.56614
G1 X17.581 Y12.934 E1.59142
G1 X17.405 Y13.449 E1.61667
G1 X17.095 Y14.138 E1.65172
G1 X16.798 Y14.662 E1.67966
G1 X16.491 Y15.111 E1.70489
G1 X16.146 Y15.532 E1.73014
G1 X15.749 Y15.944 E1.75668
G1 X15.154 Y16.456 E1.7931
G1 X14.709 Y16.77 E1.81837
G1 X14.239 Y17.044 E1.84361
G1 X13.491 Y17.388 E1.88181
G1 X12.986 Y17.563 E1.90661
G1 X12.459 Y17.702 E1.9319
G1 X11.923 Y17.795 E1.95714
G1 X11.222 Y17.851 E1.98976
G1 X10.568 Y17.843 E2.0201
G1 X10.026 Y17.789 E2.04537
G1 X9.486 Y17.687 E2.07086
G1 X8.658 Y17.443 E2.11091
G1 X8.154 Y17.239 E2.13613
G1 X7.669 Y16.992 E2.16138
G1 X6.938 Y16.522 E2.2017
G1 X6.512 Y16.184 E2.22693
G1 X6.116 Y15.81 E2.2522
G1 X5.665 Y15.3 E2.28378
G1 X5.267 Y14.756 E2.31505
G1 X5.005 Y14.322 E2.33857
G1 X4.765 Y13.85 E2.36314
G1 X4.56 Y13.346 E2.38838
G1 X4.316 Y12.512 E2.42869
G1 X4.215 Y11.978 E2.4539
G1 X4.161 Y11.436 E2.47917
G1 X4.157 Y10.688 E2.51387
G1 X4.209 Y10.081 E2.54213
G1 X4.302 Y9.544 E2.56741
G1 X4.44 Y9.018 E2.59264
G1 X4.624 Y8.495 E2.61836
G1 X4.96 Y7.765 E2.65564
G1 X5.233 Y7.296 E2.68082
G1 X5.521 Y6.883 E2.70418
G1 X5.858 Y6.472 E2.72884
G1 X6.293 Y6.024 E2.75781
G1 X6.85 Y5.547 E2.79183
G1 X7.294 Y5.234 E2.81703
G1 X7.728 Y4.978 E2.84041
G1 X8.204 Y4.744 E2.86502
G1 X8.95 Y4.463 E2.902
G1 X9.481 Y4.318 E2.92754
G1 X9.972 Y4.225 E2.95072
G1 X10.512 Y4.163 E2.97594
G1 X10.916 Y4.149 E2.99469
G1 X10.991 Y3.704 F7800
G1 F1800
G1 X11.085 Y3.702 E2.99905
G1 X11.593 Y3.725 E3.02264
G1 X12.111 Y3.786 E3.04684
G1 X12.623 Y3.883 E3.07102
G1 X13.127 Y4.017 E3.09521
G1 X13.619 Y4.186 E3.11934
G1 X14.099 Y4.39 E3.14354
G1 X14.563 Y4.628 E3.16773
G1 X15.008 Y4.898 E3.19188
G1 X15.45 Y5.213 E3.21706
G1 X15.836 Y5.531 E3.24026
G1 X16.215 Y5.89 E3.26448
G1 X16.573 Y6.284 E3.28918
G1 X16.889 Y6.684 E3.31283
G1 X17.182 Y7.115 E3.33701
G1 X17.443 Y7.565 E3.36114
G1 X17.672 Y8.033 E3.38531
G1 X17.867 Y8.517 E3.40952
G1 X18.027 Y9.013 E3.4337
G1 X18.152 Y9.527 E3.45824
G1 X18.238 Y10.033 E3.48205
G1 X18.289 Y10.552 E3.50624
G1 X18.303 Y11.073 E3.53042
G1 X18.279 Y11.593 E3.55457
G1 X18.218 Y12.111 E3.57877
G1 X18.121 Y12.623 E3.60295
G1 X17.987 Y13.127 E3.62714
G1 X17.817 Y13.62 E3.65133
G1 X17.606 Y14.114 E3.67625
G1 X17.376 Y14.563 E3.69965
G1 X17.105 Y15.009 E3.72386
G1 X16.804 Y15.434 E3.74802
G1 X16.473 Y15.836 E3.77218
G1 X16.113 Y16.215 E3.79643
G1 X15.72 Y16.573 E3.82109
G1 X15.32 Y16.889 E3.84474
G1 X14.89 Y17.182 E3.86888
G1 X14.439 Y17.444 E3.89308
G1 X13.97 Y17.672 E3.91727
G1 X13.487 Y17.867 E3.94143
G1 X12.991 Y18.027 E3.96561
G1 X12.484 Y18.151 E3.98982
G1 X11.971 Y18.238 E4.01396
G1 X11.452 Y18.289 E4.03815
G1 X10.931 Y18.303 E4.06233
G1 X10.41 Y18.279 E4.08653
G1 X9.893 Y18.218 E4.11068
G1 X9.375 Y18.119 E4.13515
G1 X8.877 Y17.987 E4.15905
G1 X8.384 Y17.818 E4.18323
G1 X7.887 Y17.605 E4.20832
G1 X7.441 Y17.376 E4.23158
G1 X6.995 Y17.105 E4.25579
G1 X6.57 Y16.804 E4.27995
G1 X6.167 Y16.473 E4.30414
G1 X5.789 Y16.114 E4.32832
G1 X5.438 Y15.729 E4.35249
G1 X5.115 Y15.32 E4.37667
G1 X4.821 Y14.888 E4.40091
G1 X4.555 Y14.428 E4.42556
G1 X4.332 Y13.971 E4.44915
G1 X4.137 Y13.486 E4.4734
G1 X3.974 Y12.979 E4.49811
G1 X3.853 Y12.485 E4.52171
G1 X3.765 Y11.971 E4.5459
G1 X3.715 Y11.452 E4.57009
G1 X3.701 Y10.93 E4.59432
G1 X3.725 Y10.411 E4.61842
G1 X3.786 Y9.893 E4.64262
G1 X3.883 Y9.381 E4.6668
G1 X4.017 Y8.877 E4.69099
G1 X4.186 Y8.384 E4.71517
G1 X4.39 Y7.905 E4.73932
G1 X4.628 Y7.441 E4.76351
G1 X4.899 Y6.995 E4.78772
G1 X5.207 Y6.561 E4.81241
G1 X5.531 Y6.167 E4.83608
G1 X5.889 Y5.79 E4.8602
G1 X6.274 Y5.438 E4.8844
G1 X6.684 Y5.115 E4.90861
G1 X7.115 Y4.822 E4.93279
G1 X7.576 Y4.555 E4.95751
G1 X8.034 Y4.332 E4.98114
G1 X8.517 Y4.137 E5.0053
G1 X9.013 Y3.977 E5.02948
G1 X9.519 Y3.853 E5.05365
G1 X10.033 Y3.765 E5.07784
G1 X10.553 Y3.715 E5.10208
G1 X10.931 Y3.705 E5.11962
G1 X11.007 Y3.258 F7800
;TYPE:External perimeter
G1 F1800
G1 X11.1 Y3.256 E5.12394
G1 X11.641 Y3.281 E5.14907
G1 X12.19 Y3.346 E5.17472
G1 X12.733 Y3.451 E5.20038
G1 X13.268 Y3.593 E5.22606
G1 X13.833 Y3.791 E5.25383
G1 X14.299 Y3.991 E5.27736
G1 X14.791 Y4.244 E5.30303
G1 X15.263 Y4.532 E5.32868
G1 X15.73 Y4.865 E5.35529
G1 X16.141 Y5.204 E5.38001
G1 X16.542 Y5.587 E5.40574
G1 X16.93 Y6.015 E5.43254
G1 X17.256 Y6.429 E5.45699
G1 X17.566 Y6.887 E5.48265
G1 X17.843 Y7.365 E5.50828
G1 X18.085 Y7.863 E5.53397
G1 X18.291 Y8.376 E5.55962
G1 X18.459 Y8.902 E5.58524
G1 X18.592 Y9.448 E5.61131
G1 X18.682 Y9.985 E5.63657
G1 X18.735 Y10.536 E5.66225
G1 X18.749 Y11.088 E5.68787
G1 X18.723 Y11.641 E5.71355
G1 X18.657 Y12.19 E5.7392
G1 X18.553 Y12.733 E5.76485
G1 X18.41 Y13.268 E5.79054
G1 X18.23 Y13.791 E5.8162
G1 X18.005 Y14.314 E5.84261
G1 X17.76 Y14.79 E5.86745
G1 X17.472 Y15.263 E5.89314
G1 X17.151 Y15.714 E5.91882
G1 X16.8 Y16.14 E5.94443
G1 X16.417 Y16.542 E5.97019
G1 X16 Y16.921 E5.99633
G1 X15.575 Y17.255 E6.02141
G1 X15.117 Y17.566 E6.04709
G1 X14.638 Y17.843 E6.07276
G1 X14.141 Y18.085 E6.09841
G1 X13.628 Y18.29 E6.12404
G1 X13.059 Y18.47 E6.15173
G1 X12.564 Y18.59 E6.17536
G1 X12.019 Y18.682 E6.201
G1 X11.43 Y18.736 E6.22844
G1 X10.915 Y18.749 E6.25234
G1 X10.363 Y18.723 E6.27798
G1 X9.814 Y18.657 E6.30363
G1 X9.265 Y18.552 E6.32956
G1 X8.736 Y18.41 E6.35497
G1 X8.214 Y18.23 E6.38059
G1 X7.688 Y18.004 E6.40715
G1 X7.213 Y17.759 E6.43195
G1 X6.741 Y17.472 E6.45758
G1 X6.29 Y17.152 E6.48323
G1 X5.863 Y16.8 E6.5089
G1 X5.463 Y16.418 E6.53456
G1 X5.091 Y16.01 E6.56017
G1 X4.748 Y15.574 E6.58591
G1 X4.437 Y15.115 E6.61163
G1 X4.144 Y14.604 E6.63896
G1 X3.919 Y14.141 E6.66284
G1 X3.713 Y13.626 E6.68857
G1 X3.542 Y13.09 E6.71467
G1 X3.414 Y12.564 E6.73978
G1 X3.322 Y12.019 E6.76542
G1 X3.269 Y11.468 E6.7911
G1 X3.255 Y10.914 E6.81681
G1 X3.281 Y10.363 E6.8424
G1 X3.346 Y9.814 E6.86805
G1 X3.451 Y9.27 E6.89375
G1 X3.593 Y8.736 E6.91938
G1 X3.774 Y8.214 E6.94501
G1 X3.991 Y7.705 E6.97068
G1 X4.244 Y7.213 E6.99635
G1 X4.565 Y6.693 E7.0247
G1 X4.86 Y6.281 E7.04821
G1 X5.204 Y5.863 E7.07332
G1 X5.585 Y5.463 E7.09895
G1 X6.016 Y5.073 E7.12592
G1 X6.429 Y4.748 E7.1503
G1 X6.888 Y4.437 E7.17602
G1 X7.393 Y4.147 E7.20304
G1 X7.863 Y3.919 E7.22727
G1 X8.376 Y3.713 E7.25292
G1 X8.902 Y3.545 E7.27854
G1 X9.44 Y3.414 E7.30423
G1 X9.985 Y3.322 E7.32987
G1 X10.538 Y3.269 E7.35564
G1 X10.947 Y3.259 E7.37462
G1 X11.347 Y3.269 F7800
G1 E6.37462 F2400
G92 E0
G1 X14.466 Y5.246 F7800
G1 E1 F2400
;TYPE:Solid infill
;WIDTH:0.503309
G1 F1800
G1 X15.641 Y6.42 E1.07763
G1 X15.939 Y6.741 E1.0981
G1 X16.223 Y7.094 E1.11927
G1 X16.488 Y7.476 E1.141
G1 X16.726 Y7.876 E1.16275
G1 X16.974 Y8.389 E1.18938
G1 X13.616 Y5.031 E1.41133
G1 X13.237 Y4.877 E1.43045
G1 X12.643 Y4.694 E1.4595
G1 X17.309 Y9.361 E1.76793
G1 X17.374 Y9.616 E1.78023
G1 X17.466 Y10.153 E1.80569
G1 X11.851 Y4.538 E2.17682
G1 X11.163 Y4.486 E2.20907
G1 X17.517 Y10.84 E2.62904
G1 X17.507 Y11.466 E2.6583
G1 X10.538 Y4.497 E3.11892
G1 X9.971 Y4.566 E3.14562
G1 X12.638 Y7.233 E3.3219
G1 X13.25 Y7.54 E3.3539
G1 X13.957 Y8.126 E3.39682
G1 X14.109 Y8.287 E3.40717
G1 X14.548 Y8.903 E3.44252
G1 X14.711 Y9.206 E3.4586
G1 X14.77 Y9.365 E3.46653
G1 X17.439 Y12.033 E3.64291
G1 X17.33 Y12.561 E3.66811
G1 X15.041 Y10.272 E3.8194
G1 X15.127 Y10.994 E3.85338
G1 X17.188 Y13.054 E3.98957
G1 X17.015 Y13.517 E4.01267
G1 X15.07 Y11.572 E4.14123
G1 X15.037 Y11.84 E4.15385
G1 X14.969 Y12.108 E4.16677
G1 X16.814 Y13.952 E4.28868
G1 X16.587 Y14.361 E4.31054
G1 X14.793 Y12.568 E4.42908
G1 X14.601 Y13.012 E4.45169
G1 X16.336 Y14.747 E4.56637
G1 X16.063 Y15.109 E4.58756
G1 X14.337 Y13.383 E4.70164
G1 X14.072 Y13.754 E4.72295
G1 X15.767 Y15.449 E4.83498
G1 X15.448 Y15.766 E4.856
G1 X13.738 Y14.056 E4.96902
G1 X13.396 Y14.35 E4.9901
G1 X15.109 Y16.063 E5.10332
G1 X14.746 Y16.336 E5.12455
G1 X12.997 Y14.587 E5.24015
G1 X12.579 Y14.804 E5.26216
G1 X14.361 Y16.587 E5.37998
G1 X13.951 Y16.812 E5.40184
G1 X12.103 Y14.965 E5.52395
G1 X11.582 Y15.079 E5.54888
G1 X13.517 Y17.015 E5.67681
G1 X13.054 Y17.188 E5.69991
G1 X10.971 Y15.105 E5.83759
G1 X10.399 Y15.086 E5.86434
G1 X10.286 Y15.055 E5.86982
G1 X12.726 Y17.496 E6.03113
G1 E5.03113 F2400
G92 E0
G1 X11.989 Y7.219 F7800
G1 E1 F2400
G1 F1800
G1 X9.443 Y4.673 E1.16828
G1 X8.949 Y4.816 E1.19232
G1 X11.014 Y6.881 E1.32881
G1 X10.859 Y6.877 E1.33606
G1 X10.438 Y6.941 E1.35596
G1 X8.487 Y4.989 E1.48495
G1 X8.052 Y5.19 E1.50735
G1 X9.89 Y7.029 E1.62887
G1 X9.437 Y7.211 E1.65169
G1 X7.643 Y5.417 E1.77027
G1 X7.475 Y5.516 E1.77938
G1 X7.257 Y5.668 E1.7918
G1 X8.995 Y7.405 E1.90664
